media/CinemaGamut_CanonLog2-to-CMT709_33_Ver.1.0.cube
# Gamut : Cinema Gamut to BT.709
# Gamma : Canon Log 2 to CMT 709
# Range : Full in / Full out
# Version : 1.0
# Creation Date: 2022/9/13
# Copyright(c) 2022 Canon Inc. All Rights Reserved.
LUT_3D_SIZE 33
# LUT_3D_INPUT_RANGE 0.0 1.0
0.00000000 0.00000000 0.00000000
0.00000000 0.00000000 0.00000000
0.00000000 0.00000000 0.00000000
0.02002675 0.01933651 0.01939380
0.04259474 0.01712053 0.01925094
0.07292960 0.01423968 0.01905389
0.11092602 0.01029049 0.01860662
0.14066240 0.01027476 0.02124192
0.18502800 0.00733423 0.02335151
0.23795332 0.00432572 0.02737555
0.29893057 0.00134355 0.03375259
0.36183919 0.00000000 0.04170420
0.42589885 0.00000000 0.05052623
0.49076291 0.00000000 0.05951922
0.55587031 0.00000000 0.06811154
0.62073961 0.00000000 0.07579493
0.68485814 0.00000000 0.08228705
0.74776008 0.00000000 0.08738572
0.80887558 0.00000000 0.09140595
0.86686438 0.00000000 0.09592335
0.92196641 0.00000000 0.10042197
0.96707453 0.00850206 0.10459661
0.99474747 0.03301201 0.11176782
1.00000000 0.07864208 0.12519577
1.00000000 0.11835083 0.13688503
1.00000000 0.14559312 0.14523798
1.00000000 0.16428243 0.15039728
1.00000000 0.17716213 0.15299989
1.00000000 0.18609266 0.15370355
1.00000000 0.19235333 0.15306795
1.00000000 0.19679644 0.15150936
1.00000000 0.20000665 0.14933570
1.00000000 0.20241798 0.14679819
0.00000000 0.00000000 0.00000000
0.00000000 0.00000000 0.00000000
0.00000000 0.00000000 0.00000000
0.02002675 0.01933651 0.01939380
0.04259474 0.01712053 0.01925094
0.07292960 0.01423968 0.01905389
0.11092602 0.01029049 0.01860662
0.14066240 0.01027476 0.02124192
0.18502800 0.00733423 0.02335151
0.23795332 0.00432572 0.02737555
0.29893057 0.00134355 0.03375259
0.36183919 0.00000000 0.04170420
0.42589885 0.00000000 0.05052623
0.49076291 0.00000000 0.05951922
0.55587031 0.00000000 0.06811154
0.62073961 0.00000000 0.07579493
0.68485814 0.00000000 0.08228705
0.74776008 0.00000000 0.08738572
0.80887558 0.00000000 0.09140595
0.86686438 0.00000000 0.09592335
0.92196641 0.00000000 0.10042197
0.96707453 0.00850206 0.10459661
0.99474747 0.03301201 0.11176782
1.00000000 0.07864208 0.12519577
1.00000000 0.11835083 0.13688503
1.00000000 0.14559312 0.14523798
1.00000000 0.16428243 0.15039728
1.00000000 0.17716213 0.15299989
1.00000000 0.18609266 0.15370355
1.00000000 0.19235333 0.15306795
1.00000000 0.19679644 0.15150936
1.00000000 0.20000665 0.14933570
1.00000000 0.20241798 0.14679819
0.00000000 0.00000000 0.00000000
0.00000000 0.00000000 0.00000000
0.00000000 0.00000000 0.00000000
0.02002675 0.01933651 0.01939380
0.04259474 0.01712053 0.01925094
0.07292960 0.01423968 0.01905389
0.11092602 0.01029049 0.01860662
0.14066240 0.01027476 0.02124192
0.18502800 0.00733423 0.02335151
0.23795332 0.00432572 0.02737555
0.29893057 0.00134355 0.03375259
0.36183919 0.00000000 0.04170420
0.42589885 0.00000000 0.05052623
0.49076291 0.00000000 0.05951922
0.55587031 0.00000000 0.06811154
0.62073961 0.00000000 0.07579493
0.68485814 0.00000000 0.08228705
0.74776008 0.00000000 0.08738572
0.80887558 0.00000000 0.09140595
0.86686438 0.00000000 0.09592335
0.92196641 0.00000000 0.10042197
0.96707453 0.00850206 0.10459661
0.99474747 0.03301201 0.11176782
1.00000000 0.07864208 0.12519577
1.00000000 0.11835083 0.13688503
1.00000000 0.14559312 0.14523798
1.00000000 0.16428243 0.15039728
1.00000000 0.17716213 0.15299989
1.00000000 0.18609266 0.15370355
1.00000000 0.19235333 0.15306795
1.00000000 0.19679644 0.15150936
1.00000000 0.20000665 0.14933570
1.00000000 0.20241798 0.14679819
0.01934767 0.01981559 0.01941450
0.01934767 0.01981559 0.01941450
0.01934767 0.01981559 0.01941450
0.01978127 0.01983679 0.01927374
0.04228945 0.01762841 0.01922097
0.07295461 0.01464641 0.01894986
0.11103685 0.01066591 0.01847307
0.14085230 0.01060627 0.02107163
0.18528435 0.00761013 0.02312522
0.23823587 0.00454978 0.02709473
0.29922828 0.00150860 0.03341525
0.36213930 0.00000000 0.04132995
0.42618330 0.00000000 0.05014159
0.49100438 0.00000000 0.05916158
0.55610013 0.00000000 0.06777179
0.62096283 0.00000000 0.07547833
0.68507336 0.00000000 0.08200146
0.74796622 0.00000000 0.08713955
0.80907222 0.00000000 0.09120439
0.86705016 0.00000000 0.09576378
0.92213571 0.00000000 0.10030601
0.96721419 0.00855669 0.10453523
0.99481266 0.03324988 0.11180512
1.00000000 0.07896806 0.12528461
1.00000000 0.11863523 0.13699653
1.00000000 0.14585039 0.14536369
1.00000000 0.16452150 0.15053181
1.00000000 0.17738857 0.15314034
1.00000000 0.18631090 0.15384884
1.00000000 0.19256619 0.15321743
1.00000000 0.19700565 0.15166252
1.00000000 0.20021323 0.14949212
1.00000000 0.20262273 0.14695765
0.01076118 0.03769636 0.01518943
0.01076118 0.03769636 0.01518943
0.01076118 0.03769636 0.01518943
0.01111166 0.03773797 0.01508270
0.03354579 0.03556679 0.01493039
0.06351344 0.03283195 0.01454938
0.10283610 0.02896865 0.01373425
0.14605904 0.02363751 0.01258460
0.19874395 0.01553062 0.01034545
0.24566864 0.01471273 0.01650385
0.30856572 0.00881228 0.02058441
0.37243609 0.00357991 0.02708215
0.43672671 0.00000000 0.03528315
0.50144639 0.00000000 0.04431734
0.56627660 0.00000000 0.05343445
0.63077573 0.00000000 0.06204585
0.69449381 0.00000000 0.06973660
0.75701958 0.00000000 0.07627068
0.81667348 0.00000000 0.08331172
0.87421312 0.00000000 0.08948041
0.92857859 0.00000000 0.09576205
0.97238703 0.01021000 0.10219195
0.99708167 0.04208152 0.11324164
1.00000000 0.09053942 0.12848697
1.00000000 0.12868429 0.14102594
1.00000000 0.15498228 0.14989842
1.00000000 0.17304551 0.15538895
1.00000000 0.18548951 0.15821669
1.00000000 0.19414275 0.15910755
1.00000000 0.20021771 0.15862993
1.00000000 0.20453216 0.15720782
1.00000000 0.20765007 0.15515454
1.00000000 0.20999421 0.15272773
0.00805855 0.05821084 0.01603394
0.00805855 0.05821084 0.01603394
0.00805855 0.05821084 0.01603394
0.00829411 0.05832627 0.01586237
0.02200717 0.05983765 0.00899754
0.05219572 0.05699054 0.00893627
0.09162067 0.05343157 0.00863203
0.13233508 0.04996703 0.01074755
0.18263053 0.04493121 0.00924446
0.24233296 0.03780926 0.00795673
0.30998184 0.02848964 0.00845022
0.37875053 0.01786640 0.01162926
0.44560572 0.00906566 0.01836854
0.51190950 0.00140432 0.02678646
0.57753352 0.00000000 0.03605735
0.64234039 0.00000000 0.04544226
0.70569297 0.00000000 0.05474856
0.76675187 0.00000000 0.06434172
0.82613058 0.00000000 0.07309102
0.88311499 0.00000000 0.08141192
0.93658204 0.00000000 0.09014839
0.97873121 0.01413170 0.09963266
0.99974438 0.05514376 0.11559542
1.00000000 0.10539688 0.13294995
1.00000000 0.14173049 0.14652861
1.00000000 0.16684321 0.15599797
1.00000000 0.18411188 0.16186617
1.00000000 0.19604478 0.16497889
1.00000000 0.20435675 0.16609685
1.00000000 0.21019440 0.16580571
1.00000000 0.21434049 0.16454285
1.00000000 0.21734024 0.16263277
1.00000000 0.21960672 0.16034419
0.00230283 0.08674439 0.01531179
0.00230283 0.08674439 0.01531179
0.00230283 0.08674439 0.01531179
0.00245281 0.08691530 0.01512378
0.01440397 0.08866604 0.00921030
0.04001597 0.08760962 0.00694038
0.07703814 0.08511046 0.00622520
0.12145641 0.08174868 0.00614017
0.17095535 0.07838545 0.00527542
0.23077120 0.07314156 0.00263939
0.30062812 0.06423821 0.00043441
0.37304973 0.05158926 0.00101023
0.44600841 0.03629177 0.00394067
0.51855799 0.01961284 0.00868450
0.58742942 0.00665541 0.01690916
0.65320869 0.00000000 0.02730134
0.71692985 0.00000000 0.03824891
0.77862200 0.00000000 0.04920606
0.83799022 0.00000000 0.05990416
0.89438935 0.00000000 0.07068609
0.94663226 0.00012768 0.08275155
0.98637022 0.02144265 0.09681957
1.00000000 0.07371361 0.11902887
1.00000000 0.12350905 0.13879234
1.00000000 0.15809888 0.15378817
1.00000000 0.18185728 0.16400915
1.00000000 0.19820295 0.17035926
1.00000000 0.20952013 0.17382673
1.00000000 0.21740614 0.17521927
1.00000000 0.22295995 0.17516402
1.00000000 0.22691665 0.17411114
1.00000000 0.22978517 0.17238883
1.00000000 0.23196228 0.17027535
0.00000000 0.12080637 0.01485585
0.00000000 0.12080637 0.01485585
0.00000000 0.12080637 0.01485585
0.00000000 0.12098908 0.01466581
0.00341230 0.12345096 0.00637755
0.02567194 0.12350996 0.00185935
0.06155773 0.12185717 0.00015224
0.10870378 0.11929356 0.00000000
0.15912214 0.11726358 0.00027542
0.21670592 0.11542996 0.00000000
0.28482985 0.11119390 0.00000000
0.35858616 0.10196454 0.00000000
0.43436178 0.08753540 0.00000000
0.51063966 0.06793346 0.00000000
0.58601536 0.04588188 0.00450964
0.65946027 0.02386603 0.01069812
0.72755742 0.00843715 0.02045758
0.79179729 0.00000000 0.03163484
0.85220965 0.00000000 0.04386216
0.90833545 0.00000000 0.05744799
0.95870751 0.00676721 0.07398034
0.99343350 0.03986045 0.09647726
1.00000000 0.10047270 0.12468201
1.00000000 0.14691673 0.14727898
1.00000000 0.17901455 0.16372757
1.00000000 0.20109973 0.17479966
1.00000000 0.21633033 0.18172124
1.00000000 0.22690774 0.18562126
1.00000000 0.23431125 0.18737423
1.00000000 0.23953814 0.18762328
1.00000000 0.24326314 0.18682900
1.00000000 0.24596855 0.18533587
1.00000000 0.24802827 0.18343042
0.00000000 0.14851183 0.01917795
0.00000000 0.14851183 0.01917795
0.00000000 0.14851183 0.01917795
0.00000000 0.14868497 0.01897359
0.00061600 0.15307248 0.00994666
0.01589926 0.15592126 0.00299409
0.04669163 0.15673931 0.00000000
0.09204192 0.15651466 0.00000000
0.14388165 0.15673895 0.00000000
0.20004828 0.15798180 0.00127407
0.26497630 0.15909869 0.00058809
0.33809473 0.15601368 0.00000000
0.41622208 0.14745112 0.00000000
0.49638724 0.13325363 0.00000000
0.57667538 0.11319653 0.00065361
0.65577803 0.08665026 0.00435625
0.73206789 0.05592228 0.00946330
0.80377428 0.02888881 0.01687499
0.86767324 0.01427132 0.02919299
0.92444446 0.01231949 0.04546586
0.97222530 0.02896031 0.06835425
0.99918256 0.08089410 0.10323105
1.00000000 0.13890600 0.13657803
1.00000000 0.17959865 0.16158229
1.00000000 0.20818327 0.17935440
1.00000000 0.22805391 0.19128081
1.00000000 0.24186147 0.19883301
1.00000000 0.25149231 0.20322792
1.00000000 0.25826145 0.20539557
1.00000000 0.26306202 0.20600723
1.00000000 0.26650466 0.20554200
1.00000000 0.26902005 0.20434915
1.00000000 0.27092909 0.20270245
0.00000000 0.18476859 0.02474002
0.00000000 0.18476859 0.02474002
0.00000000 0.18476859 0.02474002
0.00000000 0.18492044 0.02451782
0.00000000 0.18939013 0.01512292
0.00922765 0.19347992 0.00606204
0.03503121 0.19601828 0.00141119
0.07668933 0.19772069 0.00000000
0.13014139 0.19995829 0.00000000
0.18765528 0.20322523 0.00041677
0.25139563 0.20700096 0.00222718
0.32211838 0.20821885 0.00198011
0.39959332 0.20484120 0.00065338
0.48145645 0.19589882 0.00026187
0.56507905 0.18119772 0.00156065
0.64850488 0.16065070 0.00424078
0.73019036 0.13418161 0.00786920
0.80848364 0.10218280 0.01285948
0.88053240 0.06952442 0.02129164
0.94112890 0.05610122 0.03818925
0.98387678 0.08363949 0.07216265
1.00000000 0.14011107 0.11879969
1.00000000 0.18793273 0.15655141
1.00000000 0.22215556 0.18351799
1.00000000 0.24674240 0.20250662
1.00000000 0.26409672 0.21531840
1.00000000 0.27626567 0.22356156
1.00000000 0.28481324 0.22853098
1.00000000 0.29085283 0.23119082
1.00000000 0.29515403 0.23223227
1.00000000 0.29825224 0.23215027
1.00000000 0.30052075 0.23129849
1.00000000 0.30223860 0.22994761
0.00000000 0.22956069 0.03144601
0.00000000 0.22956069 0.03144601
0.00000000 0.22956069 0.03144601
0.00000000 0.22968984 0.03120556
0.00000000 0.23379380 0.02141500
0.00450809 0.23818245 0.01099437
0.02464791 0.24167520 0.00369021
0.06230453 0.24450940 0.00000000
0.11611424 0.24816450 0.00000000
0.17502062 0.25298393 0.00000000
0.23973061 0.25855291 0.00048727
0.31005727 0.26208201 0.00166441
0.38669494 0.26211399 0.00187809
0.46892066 0.25730559 0.00181918
0.55457324 0.24691408 0.00283983
0.64123707 0.23084367 0.00549043
0.72702165 0.20924833 0.00945156
0.80995263 0.18291008 0.01486226
0.88733123 0.15472906 0.02349727
0.95359570 0.13567252 0.04119418
0.99146529 0.16175949 0.09012598
1.00000000 0.20503330 0.14271153
1.00000000 0.24385301 0.18379578
1.00000000 0.27217973 0.21261930
1.00000000 0.29289716 0.23285903
1.00000000 0.30779834 0.24669333
1.00000000 0.31836224 0.25577516
1.00000000 0.32584235 0.26145005
1.00000000 0.33116392 0.26471556
1.00000000 0.33496382 0.26627191
1.00000000 0.33771682 0.26664458
1.00000000 0.33969154 0.26614810
1.00000000 0.34119299 0.26511147
0.00000000 0.27784604 0.03804489
0.00000000 0.27784604 0.03804489
0.00000000 0.27784604 0.03804489
0.00000000 0.27795556 0.03779757
0.00000000 0.28159575 0.02793532
0.00117161 0.28577431 0.01688793
0.01485900 0.28987413 0.00680931
0.04773570 0.29335151 0.00166708
0.09957606 0.29787878 0.00000000
0.15903079 0.30394645 0.00000000
0.22391056 0.31111824 0.00000000
0.29441737 0.31687232 0.00003297
0.37093430 0.31949778 0.00028483
0.45360380 0.31788618 0.00022757
0.54114138 0.31096792 0.00061548
0.63119747 0.29824487 0.00267676
0.72118220 0.27994154 0.00708798
0.80886100 0.25682987 0.01380554
0.89164581 0.23097798 0.02379976
0.96199067 0.21241854 0.04584135
0.99806272 0.23350937 0.10902738
1.00000000 0.26788410 0.16785960
1.00000000 0.29936305 0.21225231
1.00000000 0.32363843 0.24403639
1.00000000 0.34141565 0.26625873
1.00000000 0.35426658 0.28152036
1.00000000 0.36345438 0.29172800
1.00000000 0.37000449 0.29831566
1.00000000 0.37471275 0.30235591
1.00000000 0.37807640 0.30454404
1.00000000 0.38044747 0.30537470
1.00000000 0.38218764 0.30530893
1.00000000 0.38346015 0.30458817
0.00000000 0.32828827 0.04389664
0.00000000 0.32828827 0.04389664
0.00000000 0.32828827 0.04389664
0.00000000 0.32838188 0.04365245
0.00000000 0.33158406 0.03403192
0.00000000 0.33542362 0.02290156
0.00741138 0.33972268 0.01117316
0.03359919 0.34364335 0.00380979
0.08061669 0.34873516 0.00026911
0.14056105 0.35558376 0.00000000
0.20488734 0.36399457 0.00000000
0.27458254 0.37162393 0.00000000
0.35059470 0.37700766 0.00000000
0.43299062 0.37845545 0.00000000
0.52154577 0.37495819 0.00000000
0.61446645 0.36560632 0.00000000
0.70930457 0.35004088 0.00085389
0.80336076 0.32862626 0.00630586
0.89243283 0.30384707 0.01760259
0.96789770 0.28472169 0.04502916
1.00000000 0.30030303 0.12233771
1.00000000 0.32820072 0.18994955
1.00000000 0.35461444 0.24021121
1.00000000 0.37554884 0.27599645
1.00000000 0.39101192 0.30100322
1.00000000 0.40209806 0.31820364
1.00000000 0.40999293 0.32980580
1.00000000 0.41566697 0.33750683
1.00000000 0.41984466 0.34252173
1.00000000 0.42281641 0.34546621
1.00000000 0.42491948 0.34691736
1.00000000 0.42630163 0.34718776
1.00000000 0.42740006 0.34686171
0.00000000 0.38018239 0.04847367
0.00000000 0.38018239 0.04847367
0.00000000 0.38018239 0.04847367
0.00000000 0.38026341 0.04824032
0.00000000 0.38308742 0.03911499
0.00000000 0.38657421 0.02835001
0.00265302 0.39068488 0.01624306
0.02081891 0.39509556 0.00609655
0.06148564 0.40036458 0.00167219
0.12023172 0.40773781 0.00000000
0.18382258 0.41703179 0.00000000
0.25206495 0.42607068 0.00000000
0.32644998 0.43365778 0.00000000
0.40777040 0.43840863 0.00000000
0.49576077 0.43846648 0.00000000
0.59025348 0.43281651 0.00000000
0.68934483 0.42042298 0.00000000
0.78983245 0.40117939 0.00000000
0.88661046 0.37707743 0.00373820
0.96960515 0.35618514 0.03473960
1.00000000 0.36445365 0.12607927
1.00000000 0.38657075 0.20581934
1.00000000 0.40875711 0.26441424
1.00000000 0.42680647 0.30603628
1.00000000 0.44032106 0.33496328
1.00000000 0.45003020 0.35488404
1.00000000 0.45687747 0.36846990
1.00000000 0.46173282 0.37757979
1.00000000 0.46517648 0.38351846
1.00000000 0.46766206 0.38724361
1.00000000 0.46945881 0.38937125
1.00000000 0.47074785 0.39033014
1.00000000 0.47170202 0.39047529
0.00000000 0.43291352 0.05143229
0.00000000 0.43291352 0.05143229
0.00000000 0.43291352 0.05143229
0.00000000 0.43298453 0.05121578
0.00000000 0.43549382 0.04276922
0.00000000 0.43865852 0.03266309
0.00000000 0.44252909 0.02080765
0.01106739 0.44710951 0.00885118
0.04413769 0.45259243 0.00302707
0.09883466 0.46014204 0.00040411
0.16151960 0.46991984 0.00000000
0.22801716 0.48002181 0.00000000
0.30008311 0.48930954 0.00000000
0.37896831 0.49669184 0.00000000
0.46555749 0.50061690 0.00000000
0.55960791 0.49892241 0.00000000
0.66076893 0.49054066 0.00000000
0.76624050 0.47460381 0.00000000
0.87082091 0.45210641 0.00000000
0.96371056 0.42933653 0.01397096
1.00000000 0.42818828 0.11502272
1.00000000 0.44383503 0.21218017
1.00000000 0.46200949 0.28240582
1.00000000 0.47742456 0.33213183
1.00000000 0.48909276 0.36663820
1.00000000 0.49752094 0.39028083
1.00000000 0.50343577 0.40642390
1.00000000 0.50755199 0.41740936
1.00000000 0.51044870 0.42474015
1.00000000 0.51250973 0.42950029
1.00000000 0.51397879 0.43241446
1.00000000 0.51503115 0.43400176
1.00000000 0.51579879 0.43463790
0.00000000 0.48594557 0.05258978
0.00000000 0.48594557 0.05258978
0.00000000 0.48594557 0.05258978
0.00000000 0.48600863 0.05239389
0.00000000 0.48825686 0.04475919
0.00000000 0.49113753 0.03552547
0.00000000 0.49474831 0.02439809
0.00518287 0.49919781 0.01236722
0.02967889 0.50496265 0.00426673
0.07715639 0.51251190 0.00125228
0.13843022 0.52263025 0.00000000
0.20239973 0.53350266 0.00000000
0.27148413 0.54415954 0.00000000
0.34721210 0.55362071 0.00000000
0.43101877 0.56055551 0.00000000
0.52366618 0.56324873 0.00000000
0.62447488 0.55926919 0.00000000
0.73256092 0.54768878 0.00000000
0.84343327 0.52826822 0.00000000
0.94721036 0.50483659 0.00000000
1.00000000 0.49355233 0.08048857
1.00000000 0.50168394 0.20528720
1.00000000 0.51514408 0.29197122
1.00000000 0.52774969 0.35264620
1.00000000 0.53752239 0.39463735
1.00000000 0.54455559 0.42337713
1.00000000 0.54947905 0.44290996
1.00000000 0.55285410 0.45620471
1.00000000 0.55514711 0.46523746
1.00000000 0.55674627 0.47125207
1.00000000 0.55788041 0.47513403
1.00000000 0.55868717 0.47747644
1.00000000 0.55922403 0.47864272
0.00000000 0.53888873 0.05135207
0.00000000 0.53888873 0.05135207
0.00000000 0.53888873 0.05135207
0.00000000 0.53894566 0.05117683
0.00000000 0.54098885 0.04434180
0.00000000 0.54363956 0.03599169
0.00000000 0.54702281 0.02570756
0.00000000 0.55132021 0.01397062
0.01556623 0.55726741 0.00372243
0.05392895 0.56490308 0.00000000
0.11078239 0.57519763 0.00000000
0.17278622 0.58663167 0.00000000
0.23879980 0.59845383 0.00000000
0.31161830 0.60947352 0.00000000
0.39226451 0.61874750 0.00000000
0.48208244 0.62480057 0.00000000
0.58168373 0.62578131 0.00000000
0.68979874 0.61903388 0.00000000
0.80450237 0.60401325 0.00000000
0.91805570 0.58197572 0.00000000
1.00000000 0.56225411 0.01652024
1.00000000 0.56180346 0.17995457
1.00000000 0.56941073 0.29023714
1.00000000 0.57843033 0.36605838
1.00000000 0.58601448 0.41800505
1.00000000 0.59148199 0.45341172
1.00000000 0.59520364 0.47745121
1.00000000 0.59769534 0.49371546
1.00000000 0.59932787 0.50476868
1.00000000 0.60038036 0.51227857
1.00000000 0.60109497 0.51726742
1.00000000 0.60158048 0.52044578
1.00000000 0.60187070 0.52224861
0.00000000 0.59189246 0.04359186
0.00000000 0.59189246 0.04359186
0.00000000 0.59189246 0.04359186
0.00000000 0.59194484 0.04343411
0.00000000 0.59383056 0.03730133
0.00000000 0.59629892 0.02974502
0.00000000 0.59948836 0.02028713
0.00000000 0.60362380 0.00904858
0.00000000 0.60953106 0.00000000
0.02469520 0.61731244 0.00000000
0.07301793 0.62759511 0.00000000
0.13448315 0.63950638 0.00000000
0.19982787 0.65191250 0.00000000
0.27009079 0.66428946 0.00000000
0.34806727 0.67545321 0.00000000
0.43493032 0.68415192 0.00000000
0.53183519 0.68888610 0.00000000
0.63919640 0.68769734 0.00000000
0.75485635 0.67779799 0.00000000
0.87494065 0.65944397 0.00000000
0.98591798 0.63675303 0.00000000
1.00000000 0.62584827 0.12754616
1.00000000 0.62600911 0.27331223
1.00000000 0.63032524 0.36990571
1.00000000 0.63496677 0.43549911
1.00000000 0.63854675 0.47968853
1.00000000 0.64083188 0.50947222
1.00000000 0.64217453 0.52956661
1.00000000 0.64295190 0.54313008
1.00000000 0.64335875 0.55233074
1.00000000 0.64353346 0.55857079
1.00000000 0.64359953 0.56267035
1.00000000 0.64356327 0.56515811
0.00000000 0.64468754 0.02759423
0.00000000 0.64468754 0.02759423
0.00000000 0.64468754 0.02759423
0.00000000 0.64473616 0.02745321
0.00000000 0.64648954 0.02198956
0.00000000 0.64880016 0.01520558
0.00000000 0.65181207 0.00660481
0.00000000 0.65576822 0.00000000
0.00000000 0.66151305 0.00000000
0.00000000 0.66943111 0.00000000
0.02435792 0.67959959 0.00000000
0.08025403 0.69162961 0.00000000
0.14847237 0.70464177 0.00000000
0.21936135 0.71796664 0.00000000
0.29590921 0.73059225 0.00000000
0.38066252 0.74152144 0.00000000
0.47501731 0.74928574 0.00000000
0.58003657 0.75227152 0.00000000
0.69578459 0.74850171 0.00000000
0.81867295 0.73523145 0.00000000
0.94104099 0.71432342 0.00000000
1.00000000 0.69388387 0.01942318
1.00000000 0.68572922 0.23358924
1.00000000 0.68417009 0.36047746
1.00000000 0.68496718 0.44495444
1.00000000 0.68598373 0.50121374
1.00000000 0.68650750 0.53848195
1.00000000 0.68645050 0.56335055
1.00000000 0.68607269 0.58003526
1.00000000 0.68561259 0.59126203
1.00000000 0.68513364 0.59885478
1.00000000 0.68464928 0.60394858
1.00000000 0.68417024 0.60713739
0.00000000 0.69690056 0.00278815
0.00000000 0.69690056 0.00278815
0.00000000 0.69690056 0.00278815
0.00000000 0.69694601 0.00266253
0.00000000 0.69858591 0.00000000
0.00000000 0.70075757 0.00000000
0.00000000 0.70360535 0.00000000
0.00000000 0.70737756 0.00000000
0.00000000 0.71291679 0.00000000
0.00000000 0.72071728 0.00000000
0.00000000 0.73092683 0.00000000
0.00790364 0.74288977 0.00000000
0.07113632 0.75636873 0.00000000
0.15120340 0.77029481 0.00000000
0.23112957 0.78417269 0.00000000
0.31603818 0.79683090 0.00000000
0.40932404 0.80714374 0.00000000
0.51247034 0.81360137 0.00000000
0.62653813 0.81442540 0.00000000
0.75100883 0.80773024 0.00000000
0.88008076 0.79107393 0.00000000
0.99755803 0.76669206 0.00000000
1.00000000 0.74920182 0.15446305
1.00000000 0.74060298 0.33153547
1.00000000 0.73647062 0.44285999
1.00000000 0.73413782 0.51589470
1.00000000 0.73229694 0.56350935
1.00000000 0.73053135 0.59455722
1.00000000 0.72874648 0.61504893
1.00000000 0.72710835 0.62871061
1.00000000 0.72573091 0.63784277
1.00000000 0.72455975 0.64392830
1.00000000 0.72349334 0.64781407
0.00000000 0.74818836 0.00000000
0.00000000 0.74818836 0.00000000
0.00000000 0.74818836 0.00000000
0.00000000 0.74823105 0.00000000
0.00000000 0.74977082 0.00000000
0.00000000 0.75181685 0.00000000
0.00000000 0.75451042 0.00000000
0.00000000 0.75809905 0.00000000
0.00000000 0.76340793 0.00000000
0.00000000 0.77098078 0.00000000
0.00000000 0.78119736 0.00000000
0.00000000 0.79309778 0.00000000
0.00000000 0.80665835 0.00000000
0.04243843 0.82117612 0.00000000
0.14019634 0.83599944 0.00000000
0.23438249 0.85006063 0.00000000
0.33036494 0.86249349 0.00000000
0.43417357 0.87181147 0.00000000
0.54746138 0.87655953 0.00000000
0.67134036 0.87482891 0.00000000
0.80439619 0.86497031 0.00000000
0.93473768 0.84313080 0.00000000
1.00000000 0.81700465 0.00000000
1.00000000 0.80001588 0.27037936
1.00000000 0.78981577 0.42268107
1.00000000 0.78319842 0.51993017
1.00000000 0.77833386 0.58223023
1.00000000 0.77430697 0.62190300
1.00000000 0.77082481 0.64733913
1.00000000 0.76775524 0.66392511
1.00000000 0.76516905 0.67487167
1.00000000 0.76306711 0.68205813
1.00000000 0.76127288 0.68658349
0.00000000 0.79271865 0.00000000
0.00000000 0.79271865 0.00000000
0.00000000 0.79271865 0.00000000
0.00000000 0.79275898 0.00000000
0.00000000 0.79421111 0.00000000
0.00000000 0.79614535 0.00000000
0.00000000 0.79869532 0.00000000
0.00000000 0.80210636 0.00000000
0.00000000 0.80717893 0.00000000
0.00000000 0.81450205 0.00000000
0.00000000 0.82471634 0.00000000
0.00000000 0.83656763 0.00000000
0.00000000 0.85023471 0.00000000
0.00000000 0.86518533 0.00000000
0.00000000 0.88076891 0.00000000
0.11744086 0.89627342 0.00000000
0.23153940 0.91033415 0.00000000
0.34070815 0.92226982 0.00000000
0.45590150 0.93034551 0.00000000
0.57934528 0.93317069 0.00000000
0.71215407 0.92883050 0.00000000
0.84967112 0.91389005 0.00000000
0.97550502 0.88653595 0.00000000
1.00000000 0.86016885 0.14177716
1.00000000 0.84235906 0.37038747
1.00000000 0.83045223 0.50410413
1.00000000 0.82183736 0.58814987
