media/CinemaGamut_CanonLog2-to-CMT709_33_Ver.1.0.cube
# Gamut : Cinema Gamut to BT.709
# Gamma : Canon Log 2 to CMT 709
# Range : Full in / Full out
# Version : 1.0
# Creation Date: 2022/9/13
# Copyright(c) 2022 Canon Inc. All Rights Reserved.
LUT_3D_SIZE 5
# LUT_3D_INPUT_RANGE 0.0 1.0
0.00000000 0.00000000 0.00000000
0.18502800 0.00733423 0.02335151
0.68485814 0.00000000 0.08228705
1.00000000 0.11835083 0.13688503
1.00000000 0.20241798 0.14679819
0.00000000 0.14851183 0.01917795
0.14388165 0.15673895 0.00000000
0.73206789 0.05592228 0.00946330
1.00000000 0.20818327 0.17935440
1.00000000 0.27092909 0.20270245
0.00000000 0.53888873 0.05135207
0.01556623 0.55726741 0.00372243
0.58168373 0.62578131 0.00000000
1.00000000 0.58601448 0.41800505
1.00000000 0.60187070 0.52224861
0.00000000 0.86947416 0.00000000
0.00000000 0.88219079 0.00000000
0.00000000 0.99468873 0.00000000
0.92039456 0.99408998 0.00000000
1.00000000 0.86278232 0.77529155
0.00000000 0.90591841 0.00000000
0.00000000 0.91884862 0.00000000
0.00000000 1.00000000 0.00000000
0.77419208 1.00000000 0.65070472
0.95468899 1.00000000 0.62274125
0.00766635 0.00159212 0.09931188
0.15161873 0.00000000 0.12167532
0.66300335 0.00000000 0.20763859
1.00000000 0.11025095 0.14884040
1.00000000 0.19409702 0.14173182
0.00406994 0.13534740 0.12563398
0.13819207 0.13819207 0.13819207
0.72760384 0.02628879 0.15627827
1.00000000 0.19899504 0.18729475
1.00000000 0.26192912 0.19625918
0.00000000 0.58380605 0.11943906
0.00000000 0.60205895 0.04879009
0.59989618 0.64511205 0.00000000
1.00000000 0.59421217 0.43625536
1.00000000 0.60932364 0.53104153
0.00000000 0.89897684 0.00000000
0.00000000 0.91132052 0.00000000
0.00000000 1.00000000 0.00000000
0.92783804 1.00000000 0.24373891
1.00000000 0.87506803 0.79636681
0.00000000 0.93358034 0.00000000
0.00000000 0.94565488 0.00000000
0.15126342 1.00000000 0.00000000
0.81810833 1.00000000 0.71599327
0.96628687 1.00000000 0.73940442
0.02056040 0.01006211 0.46995645
0.10258908 0.00333289 0.40669787
0.59652138 0.00000000 0.48325318
0.99632909 0.00393884 0.36836521
1.00000000 0.14727054 0.13583725
0.00000000 0.12203993 0.35610312
0.02565281 0.03566766 0.45646501
0.62578528 0.00000000 0.50798839
1.00000000 0.03564357 0.37202148
1.00000000 0.18455867 0.15941358
0.00000000 0.57836572 0.54667482
0.00000000 0.58982716 0.55759077
0.59440242 0.59440322 0.59440284
1.00000000 0.58820635 0.59832973
1.00000000 0.62655410 0.56245641
0.00000000 1.00000000 0.00000000
0.00000000 1.00000000 0.00000000
0.00000000 1.00000000 0.00000000
0.96773481 1.00000000 0.73366654
1.00000000 0.96242895 0.93396946
0.30341809 1.00000000 0.16746181
0.33656356 1.00000000 0.20109939
0.68661047 1.00000000 0.57689343
1.00000000 1.00000000 1.00000000
1.00000000 1.00000000 1.00000000
0.00000000 0.14423920 0.62112410
0.00000000 0.10456386 0.65880437
0.29998141 0.00598480 0.84108807
0.91463351 0.00000000 0.73172027
1.00000000 0.05095644 0.38752630
0.00000000 0.17362409 0.61059705
0.00000000 0.14551999 0.63872366
0.28455040 0.00000000 0.84896757
0.92109178 0.00000000 0.73701342
1.00000000 0.06446263 0.38994058
0.00000000 0.44035460 0.79087057
0.00000000 0.44900155 0.81820435
0.34067055 0.51652507 0.98254775
1.00000000 0.45627424 0.86751509
1.00000000 0.53560209 0.63109476
0.00000000 0.95775843 0.89787819
0.00000000 0.96524264 0.90485706
0.00000000 1.00000000 0.95448422
0.95461448 0.95462234 0.95461855
1.00000000 0.95643116 0.95534338
0.19984111 1.00000000 0.21440670
0.25209376 1.00000000 0.24622160
0.59653888 1.00000000 0.52656364
0.96385884 1.00000000 0.94618652
1.00000000 1.00000000 1.00000000
0.00000000 0.19754944 0.55714545
0.00000000 0.19293411 0.54176470
0.00000000 0.19040549 0.76052272
0.43146880 0.25109453 1.00000000
0.95691836 0.00000000 0.75549315
0.00000000 0.20609613 0.58591291
0.00000000 0.20118087 0.56993556
0.00000000 0.18994257 0.74734019
0.43113989 0.25377471 1.00000000
0.96223181 0.00000000 0.75978522
0.02571496 0.36929778 0.95459338
0.05162278 0.38332504 0.95755411
0.27223419 0.51277236 0.99991932
0.61950442 0.59718718 1.00000000
1.00000000 0.48453447 0.85831280
0.48139839 0.80863300 1.00000000
0.49698054 0.81514877 1.00000000
0.66164062 0.87917856 1.00000000
0.91060975 0.95310396 1.00000000
1.00000000 0.94148824 0.98585383
0.00000000 0.99655853 0.93509057
0.00000000 1.00000000 0.94180649
0.01693039 1.00000000 0.97736306
0.92168687 1.00000000 0.99775777
1.00000000 1.00000000 1.00000000
