media/CinemaGamut_CanonLog3-to-CMT709_33_Ver.1.0.cube
# Gamut : Cinema Gamut to BT.709
# Gamma : Canon Log 3 to CMT 709
# Range : Full in / Full out
# Version : 1.0
# Creation Date: 2022/9/13
# Copyright(c) 2022 Canon Inc. All Rights Reserved.
LUT_3D_SIZE 5
# LUT_3D_INPUT_RANGE 0.0 1.0
0.00000000 0.00000000 0.00000000
0.29298899 0.00435566 0.04044994
0.73052987 0.00000000 0.10403240
1.00000000 0.02077453 0.10340426
1.00000000 0.18835296 0.11234982
0.00695203 0.22390316 0.04820107
0.23959514 0.25648549 0.00253730
0.78416772 0.17938657 0.02010057
1.00000000 0.25006797 0.20102253
1.00000000 0.33287953 0.25215243
0.00000000 0.56443231 0.07292547
0.02148330 0.60539126 0.00000000
0.61286371 0.65779928 0.00000000
1.00000000 0.60592841 0.32467110
1.00000000 0.63529165 0.53734034
0.00000000 0.82848496 0.00000000
0.00000000 0.85861494 0.00000000
0.11300394 0.96008216 0.00000000
0.88212245 0.95296145 0.00000000
1.00000000 0.86495387 0.71239108
0.00000000 0.89519650 0.00000000
0.00000000 0.92589741 0.00000000
0.00000000 1.00000000 0.00000000
0.73825069 1.00000000 0.55559060
0.94368352 1.00000000 0.58384895
0.01759606 0.00585707 0.15200360
0.24393604 0.00000000 0.20691239
0.69100028 0.00000000 0.26456070
0.99655121 0.00000000 0.20028577
1.00000000 0.17362523 0.11635015
0.00000000 0.23201056 0.21815891
0.23919376 0.23919376 0.23919376
0.79114648 0.12233411 0.23539560
1.00000000 0.22728942 0.26144166
1.00000000 0.32160471 0.25209415
0.00000000 0.66893957 0.16805677
0.00000000 0.70650542 0.00366597
0.65396855 0.70116425 0.00000000
1.00000000 0.62372540 0.37707984
1.00000000 0.65051772 0.55852595
0.00000000 0.90247453 0.00000000
0.00000000 0.93112196 0.00000000
0.09383500 1.00000000 0.00000000
0.90605237 0.97903369 0.00000000
1.00000000 0.89417576 0.77918639
0.00000000 0.96216533 0.00000000
0.00000000 0.98763405 0.00000000
0.42381883 1.00000000 0.24602826
0.84142883 1.00000000 0.73190478
0.97316508 0.99780004 0.85833517
0.03368378 0.02788331 0.46066673
0.15155419 0.00000000 0.39571184
0.60957669 0.00000000 0.50013024
0.94837349 0.00000000 0.45595469
1.00000000 0.09807578 0.26943273
0.00000000 0.17159793 0.41234811
0.08056187 0.06420934 0.56734909
0.69418437 0.00000000 0.58468191
1.00000000 0.05383468 0.48273494
1.00000000 0.23734418 0.33113116
0.00000000 0.61217171 0.57816031
0.00000000 0.63527944 0.60086540
0.62694257 0.62694468 0.62694367
1.00000000 0.59553290 0.62587678
1.00000000 0.64178098 0.62309873
0.00000000 0.97299587 0.18716118
0.00000000 0.98720386 0.17341499
0.40841700 1.00000000 0.32721668
0.92041276 0.99108728 0.24048179
1.00000000 0.93191028 0.86942450
0.21720944 1.00000000 0.12505903
0.35614702 1.00000000 0.25571720
0.69994756 1.00000000 0.60509929
0.96853785 0.99642862 0.95100724
0.98764293 0.98764293 0.98764293
0.00000000 0.15418525 0.55268896
0.00637756 0.07443258 0.61297939
0.47272814 0.00000000 0.73313903
0.87842118 0.00000000 0.70057515
1.00000000 0.00000000 0.50404781
0.00000000 0.21048816 0.55978198
0.00000000 0.15952012 0.59605895
0.46858268 0.00000000 0.79699985
0.91522602 0.00000000 0.73076665
1.00000000 0.03344297 0.51483260
0.00000000 0.51336088 0.77249437
0.00000000 0.53257191 0.83250375
0.48729877 0.54687509 0.99580352
1.00000000 0.48248456 0.89462639
1.00000000 0.56935459 0.71510740
0.00000000 0.90766926 0.85174145
0.00000000 0.92576673 0.86878522
0.00000000 0.97379280 0.92315344
0.90900777 0.90901590 0.90901199
1.00000000 0.90913497 0.91270255
0.00000000 1.00000000 0.25121322
0.06252348 1.00000000 0.32543551
0.61052510 1.00000000 0.60367379
0.92120465 0.99836975 0.89518550
0.98764293 0.98764293 0.98764293
0.00000000 0.21086736 0.50244234
0.00000000 0.19338232 0.47979933
0.05702448 0.08438501 0.92935780
0.69728659 0.00000000 0.98068795
0.95586930 0.00000000 0.74990901
0.00000000 0.24061821 0.56114127
0.00000000 0.22042704 0.53349046
0.00638661 0.06712749 0.92815608
0.70377362 0.00000000 1.00000000
0.97658224 0.00000000 0.76624844
0.00000000 0.45149147 0.90886737
0.01336434 0.46974149 0.96578946
0.33922023 0.55532642 1.00000000
0.82294467 0.53865373 1.00000000
1.00000000 0.52243673 0.87018010
0.18638742 0.80163345 1.00000000
0.27050072 0.81461931 1.00000000
0.54768524 0.86577603 1.00000000
0.86083554 0.89564831 1.00000000
1.00000000 0.88363791 0.97187071
0.00000000 0.98732765 0.92551836
0.00000000 1.00000000 0.94074452
0.12153984 1.00000000 0.97214657
0.84343397 0.99966085 0.98528133
0.98764293 0.98764293 0.98764293
