media/CinemaGamut_CanonLog2-to-CMT709_33_Ver.1.0.cube
# Gamut : Cinema Gamut to BT.709
# Gamma : Canon Log 2 to CMT 709
# Range : Full in / Full out
# Version : 1.0
# Creation Date: 2022/9/13
# Copyright(c) 2022 Canon Inc. All Rights Reserved.
LUT_3D_SIZE 9
# LUT_3D_INPUT_RANGE 0.0 1.0
0.00000000 0.00000000 0.00000000
0.04259474 0.01712053 0.01925094
0.18502800 0.00733423 0.02335151
0.42589885 0.00000000 0.05052623
0.68485814 0.00000000 0.08228705
0.92196641 0.00000000 0.10042197
1.00000000 0.11835083 0.13688503
1.00000000 0.18609266 0.15370355
1.00000000 0.20241798 0.14679819
0.01076118 0.03769636 0.01518943
0.03354579 0.03556679 0.01493039
0.19874395 0.01553062 0.01034545
0.43672671 0.00000000 0.03528315
0.69449381 0.00000000 0.06973660
0.92857859 0.00000000 0.09576205
1.00000000 0.12868429 0.14102594
1.00000000 0.19414275 0.15910755
1.00000000 0.20999421 0.15272773
0.00000000 0.14851183 0.01917795
0.00061600 0.15307248 0.00994666
0.14388165 0.15673895 0.00000000
0.41622208 0.14745112 0.00000000
0.73206789 0.05592228 0.00946330
0.97222530 0.02896031 0.06835425
1.00000000 0.20818327 0.17935440
1.00000000 0.25826145 0.20539557
1.00000000 0.27092909 0.20270245
0.00000000 0.32828827 0.04389664
0.00000000 0.33158406 0.03403192
0.08061669 0.34873516 0.00026911
0.35059470 0.37700766 0.00000000
0.70930457 0.35004088 0.00085389
1.00000000 0.30030303 0.12233771
1.00000000 0.39101192 0.30100322
1.00000000 0.41984466 0.34252173
1.00000000 0.42740006 0.34686171
0.00000000 0.53888873 0.05135207
0.00000000 0.54098885 0.04434180
0.01556623 0.55726741 0.00372243
0.23879980 0.59845383 0.00000000
0.58168373 0.62578131 0.00000000
1.00000000 0.56225411 0.01652024
1.00000000 0.58601448 0.41800505
1.00000000 0.59932787 0.50476868
1.00000000 0.60187070 0.52224861
0.00000000 0.74818836 0.00000000
0.00000000 0.74977082 0.00000000
0.00000000 0.76340793 0.00000000
0.00000000 0.80665835 0.00000000
0.33036494 0.86249349 0.00000000
0.80439619 0.86497031 0.00000000
1.00000000 0.78981577 0.42268107
1.00000000 0.77082481 0.64733913
1.00000000 0.76127288 0.68658349
0.00000000 0.86947416 0.00000000
0.00000000 0.87073795 0.00000000
0.00000000 0.88219079 0.00000000
0.00000000 0.92511674 0.00000000
0.00000000 0.99468873 0.00000000
0.49135771 1.00000000 0.00000000
0.92039456 0.99408998 0.00000000
1.00000000 0.90020883 0.67327532
1.00000000 0.86278232 0.77529155
0.00000000 0.90032865 0.00000000
0.00000000 0.90157262 0.00000000
0.00000000 0.91301940 0.00000000
0.00000000 0.95648293 0.00000000
0.00000000 1.00000000 0.00000000
0.54390484 1.00000000 0.35192394
0.78398848 1.00000000 0.57282686
0.94679831 1.00000000 0.55757792
1.00000000 0.92868882 0.73544724
0.00000000 0.90591841 0.00000000
0.00000000 0.90718715 0.00000000
0.00000000 0.91884862 0.00000000
0.00000000 0.96310144 0.00000000
0.00000000 1.00000000 0.00000000
0.56353203 1.00000000 0.41351507
0.77419208 1.00000000 0.65070472
0.85088179 1.00000000 0.69651450
0.95468899 1.00000000 0.62274125
0.01779199 0.01589725 0.03619055
0.04089182 0.01364678 0.03609003
0.18047622 0.00593108 0.04084319
0.42080419 0.00000000 0.07390730
0.68013306 0.00000000 0.09726678
0.91961019 0.00026562 0.10622948
1.00000000 0.11109101 0.13486964
1.00000000 0.18103939 0.15065130
1.00000000 0.19773194 0.14328674
0.00921595 0.03415969 0.03201400
0.03199911 0.03199911 0.03199911
0.19911087 0.01091516 0.02961678
0.43188864 0.00083627 0.05807487
0.68912229 0.00000000 0.08546326
0.92655044 0.00000000 0.10107170
1.00000000 0.12236211 0.13929206
1.00000000 0.18956631 0.15631250
1.00000000 0.20572157 0.14948893
0.00000000 0.16052835 0.02953076
0.00000000 0.16349660 0.01889914
0.14743500 0.16055817 0.00264433
0.42902464 0.13854881 0.00000000
0.73797767 0.04170865 0.01230902
0.97112545 0.02726934 0.07343409
1.00000000 0.20560040 0.17899482
1.00000000 0.25599724 0.20397769
1.00000000 0.26873917 0.20093618
0.00110831 0.33556373 0.05466733
0.00000000 0.33879642 0.04417317
0.07362315 0.35587110 0.00125628
0.35353955 0.38018329 0.00000000
0.71505893 0.34840672 0.00087240
1.00000000 0.30003642 0.12690739
1.00000000 0.39114761 0.30229476
1.00000000 0.41992964 0.34296699
1.00000000 0.42743758 0.34702298
0.00160672 0.54320116 0.05884722
0.00000000 0.54528083 0.05167707
0.01084869 0.56171977 0.00640320
0.23653239 0.60215979 0.00000000
0.58347222 0.62768767 0.00000000
1.00000000 0.56305944 0.02187778
1.00000000 0.58710577 0.42037748
1.00000000 0.60030879 0.50618921
1.00000000 0.60283043 0.52342794
0.00000000 0.75134356 0.00000000
0.00000000 0.75291676 0.00000000
0.00000000 0.76655920 0.00000000
0.00000000 0.80968917 0.00000000
0.32884786 0.86481127 0.00000000
0.80564410 0.86629743 0.00000000
1.00000000 0.79109170 0.42661191
1.00000000 0.77205209 0.64941587
1.00000000 0.76247144 0.68819073
0.00000000 0.87234759 0.00000000
0.00000000 0.87361177 0.00000000
0.00000000 0.88502307 0.00000000
0.00000000 0.92772718 0.00000000
0.00000000 0.99663871 0.00000000
0.49753489 1.00000000 0.00000000
0.92118824 0.99493307 0.01305313
1.00000000 0.90145085 0.67782839
1.00000000 0.86400877 0.77742758
0.00000000 0.90307166 0.00000000
0.00000000 0.90430920 0.00000000
0.00000000 0.91569918 0.00000000
0.00000000 0.95894047 0.00000000
0.00000000 1.00000000 0.00000000
0.55204454 1.00000000 0.36273064
0.78845277 1.00000000 0.58178776
0.94780336 1.00000000 0.56973205
1.00000000 0.92990590 0.74063050
0.00000000 0.90860158 0.00000000
0.00000000 0.90986377 0.00000000
0.00000000 0.92146824 0.00000000
0.00000000 0.96549182 0.00000000
0.00000000 1.00000000 0.00000000
0.57137828 1.00000000 0.42288745
0.77890418 1.00000000 0.65767247
0.85471534 1.00000000 0.70443865
0.95577876 1.00000000 0.63524125
0.00766635 0.00159212 0.09931188
0.02040253 0.00000000 0.10224446
0.15161873 0.00000000 0.12167532
0.39551541 0.00000000 0.18407310
0.66300335 0.00000000 0.20763859
0.90752295 0.00557776 0.18215077
1.00000000 0.11025095 0.14884040
1.00000000 0.17739759 0.15241576
1.00000000 0.19409702 0.14173182
0.00102697 0.01217300 0.10745264
0.01627709 0.00906594 0.12452083
0.16304466 0.00249357 0.13333639
0.40511054 0.00000000 0.18306573
0.67053431 0.00000000 0.20266940
0.91325506 0.00602235 0.17903202
1.00000000 0.12056209 0.15256125
1.00000000 0.18547983 0.15764559
1.00000000 0.20166268 0.14754868
0.00406994 0.13534740 0.12563398
0.00430439 0.13845616 0.12878572
0.13819207 0.13819207 0.13819207
0.46794490 0.06249903 0.13430778
0.72760384 0.02628879 0.15627827
0.95495673 0.03926856 0.15743073
1.00000000 0.19899504 0.18729475
1.00000000 0.24910178 0.20224490
1.00000000 0.26192912 0.19625918
0.00000000 0.39192800 0.15726270
0.00000000 0.39379725 0.14890785
0.00000000 0.40512567 0.06837404
0.37231105 0.39716616 0.01597613
0.76725249 0.32259812 0.02650243
1.00000000 0.29370818 0.16075765
1.00000000 0.38213957 0.30309412
1.00000000 0.41180747 0.33760223
1.00000000 0.41920404 0.33928078
0.00000000 0.58380605 0.11943906
0.00000000 0.58579904 0.11250935
0.00000000 0.60205895 0.04879009
0.20538851 0.63734432 0.00000000
0.59989618 0.64511205 0.00000000
1.00000000 0.56844143 0.06011528
1.00000000 0.59421217 0.43625536
1.00000000 0.60688405 0.51554291
1.00000000 0.60932364 0.53104153
0.00000000 0.78089418 0.00000000
0.00000000 0.78247616 0.00000000
0.00000000 0.79578653 0.00000000
0.00000000 0.83801312 0.00000000
0.31330878 0.88640818 0.00000000
0.81715949 0.87853993 0.00000000
1.00000000 0.80235576 0.45947931
1.00000000 0.78262760 0.66655287
1.00000000 0.77284034 0.70171489
0.00000000 0.89897684 0.00000000
0.00000000 0.90030259 0.00000000
0.00000000 0.91132052 0.00000000
0.00000000 0.95199974 0.00000000
0.00000000 1.00000000 0.00000000
0.55622845 1.00000000 0.12001118
0.92783804 1.00000000 0.24373891
1.00000000 0.91237642 0.71574784
1.00000000 0.87506803 0.79636681
0.00000000 0.92866902 0.00000000
0.00000000 0.92985773 0.00000000
0.00000000 0.94058383 0.00000000
0.00000000 0.98110800 0.00000000
0.03733128 1.00000000 0.00000000
0.61758707 1.00000000 0.44949823
0.82560124 1.00000000 0.65553128
0.95750207 1.00000000 0.66873794
1.00000000 0.94069359 0.78561261
0.00000000 0.93358034 0.00000000
0.00000000 0.93476747 0.00000000
0.00000000 0.94565488 0.00000000
0.00000000 0.98672334 0.00000000
0.15126342 1.00000000 0.00000000
0.63434529 1.00000000 0.49916622
0.81810833 1.00000000 0.71599327
0.88694101 1.00000000 0.77051980
0.96628687 1.00000000 0.73940442
0.01941323 0.00722959 0.26449651
0.03047598 0.00436492 0.25749596
0.12019567 0.00000000 0.21000983
0.36187252 0.00000000 0.29509375
0.63415849 0.00000000 0.33852627
0.88512204 0.00000000 0.31376627
1.00000000 0.05643553 0.22747613
1.00000000 0.15291042 0.15479718
1.00000000 0.17094605 0.12894178
0.00911738 0.01477901 0.26412784
0.01974144 0.00847679 0.26601359
0.11546147 0.00000000 0.21797483
0.36593413 0.00000000 0.29849505
0.63980073 0.00000000 0.33825291
0.89046921 0.00000000 0.31114772
1.00000000 0.05904656 0.22719365
1.00000000 0.15580735 0.15600857
1.00000000 0.17362413 0.13083795
0.00000000 0.10124038 0.20769832
0.00000000 0.09653588 0.21733912
0.08593230 0.04777704 0.34331755
0.41022225 0.00982064 0.35920607
0.69431873 0.00000000 0.34211042
0.93556475 0.00000000 0.30590165
1.00000000 0.15553333 0.25299260
1.00000000 0.22680087 0.19951406
1.00000000 0.24031033 0.18219604
0.00097920 0.34388526 0.32444286
0.00000000 0.34568430 0.32614934
0.00000000 0.36014432 0.34063557
0.35456048 0.35456048 0.35456048
0.73684680 0.29195102 0.34636172
0.98350413 0.27888722 0.34606945
1.00000000 0.37476946 0.36330168
1.00000000 0.41229219 0.34847332
1.00000000 0.41991119 0.34377824
0.00000000 0.62540873 0.30827702
0.00000000 0.62657816 0.30566225
0.00000000 0.63645238 0.28338715
0.14805161 0.66357426 0.22447956
0.61230431 0.64944815 0.17532780
1.00000000 0.57334661 0.28208257
1.00000000 0.61006142 0.48939944
1.00000000 0.62554754 0.54459629
1.00000000 0.62889990 0.55571296
0.00000000 0.90604977 0.00000000
0.00000000 0.90771074 0.00000000
0.00000000 0.91834795 0.00000000
0.00000000 0.94380737 0.00000000
0.22347130 0.96261727 0.00000000
0.85565044 0.91933388 0.00000000
1.00000000 0.83534587 0.53319952
1.00000000 0.81468712 0.70932371
1.00000000 0.80527843 0.73880078
0.00000000 1.00000000 0.00000000
0.00000000 1.00000000 0.00000000
0.00000000 1.00000000 0.00000000
0.00000000 1.00000000 0.00000000
0.32947598 1.00000000 0.14569253
0.71592868 1.00000000 0.46567496
0.96203382 1.00000000 0.64692536
1.00000000 0.95098756 0.83339986
1.00000000 0.91467335 0.85889422
0.00000000 1.00000000 0.00000000
0.00000000 1.00000000 0.00000000
0.00000000 1.00000000 0.00000000
0.00000000 1.00000000 0.00000000
0.52632737 1.00000000 0.39349962
0.79036602 1.00000000 0.68355001
0.93579591 1.00000000 0.86829440
1.00000000 1.00000000 1.00000000
1.00000000 0.97798207 0.92233740
0.00000000 1.00000000 0.00000000
0.00000000 1.00000000 0.00000000
0.00000000 1.00000000 0.00000000
0.23295514 1.00000000 0.06796425
0.56315631 1.00000000 0.42934354
0.80418873 1.00000000 0.71633688
0.93628207 1.00000000 0.89562896
0.98129200 1.00000000 0.95713971
1.00000000 1.00000000 1.00000000
0.02056040 0.01006211 0.46995645
0.02961360 0.00749708 0.46632152
0.10258908 0.00333289 0.40669787
0.31240650 0.00000000 0.41802270
0.59652138 0.00000000 0.48325318
0.85070000 0.00000000 0.47503310
0.99632909 0.00393884 0.36836521
1.00000000 0.10376137 0.23938725
1.00000000 0.14727054 0.13583725
0.01226463 0.01883509 0.46645220
0.02093424 0.01251850 0.46877193
0.09662044 0.00346172 0.41543648
0.31053683 0.00000000 0.42010713
0.59773872 0.00000000 0.48425698
0.85261563 0.00000000 0.47515099
0.99745471 0.00514504 0.36811937
1.00000000 0.10727055 0.24024782
1.00000000 0.15007756 0.13741950
0.00000000 0.12203993 0.35610312
0.00000000 0.11624949 0.36688660
0.02565281 0.03566766 0.45646501
0.30623725 0.00000000 0.47503238
0.62578528 0.00000000 0.50798839
0.88556806 0.00000000 0.48144477
1.00000000 0.03564357 0.37202148
1.00000000 0.14763726 0.25438604
1.00000000 0.18455867 0.15941358
0.00000000 0.28549494 0.41572886
0.00000000 0.28662500 0.42031377
0.00000000 0.29204530 0.48007786
0.29215795 0.25547904 0.66417585
0.72656971 0.14855948 0.64443339
0.98551956 0.16588220 0.54021288
1.00000000 0.30929587 0.45885547
1.00000000 0.36279170 0.38255256
1.00000000 0.38342190 0.32129331
0.00000000 0.57836572 0.54667482
0.00000000 0.57952941 0.54776735
0.00000000 0.58982716 0.55759077
0.01695319 0.61595066 0.58662344
0.59440242 0.59440322 0.59440284
0.97423107 0.54282225 0.58323188
1.00000000 0.58820635 0.59832973
1.00000000 0.61615593 0.58496181
1.00000000 0.62655410 0.56245641
0.00000000 0.86489533 0.39971656
0.00000000 0.86571816 0.39883274
0.00000000 0.87287713 0.39220525
0.00000000 0.89732705 0.38069893
0.33051617 0.91892368 0.38162544
0.84018496 0.88857141 0.37504645
1.00000000 0.83116605 0.65658253
1.00000000 0.83820641 0.76760764
1.00000000 0.83859574 0.78760508
0.00000000 1.00000000 0.00000000
0.00000000 1.00000000 0.00000000
0.00000000 1.00000000 0.00000000
0.00000000 1.00000000 0.00000000
0.00000000 1.00000000 0.00000000
0.76243275 1.00000000 0.58141227
0.96773481 1.00000000 0.73366654
1.00000000 0.97488076 0.90999286
1.00000000 0.96242895 0.93396946
0.00000000 1.00000000 0.00000000
0.00000000 1.00000000 0.00000000
0.00000000 1.00000000 0.00000000
0.00000000 1.00000000 0.00000000
0.62367463 1.00000000 0.51325678
0.86113010 1.00000000 0.78882511
0.98672931 1.00000000 0.96792153
1.00000000 1.00000000 1.00000000
1.00000000 1.00000000 1.00000000
0.30341809 1.00000000 0.16746181
0.30647847 1.00000000 0.17057802
0.33656356 1.00000000 0.20109939
0.47962152 1.00000000 0.34759060
0.68661047 1.00000000 0.57689343
0.88762024 1.00000000 0.83289620
1.00000000 1.00000000 1.00000000
1.00000000 1.00000000 1.00000000
1.00000000 1.00000000 1.00000000
0.00483252 0.03578234 0.64185667
0.00932563 0.02596908 0.64921393
0.05285434 0.01804344 0.62154550
0.17771549 0.00000000 0.57896448
0.51642729 0.00000000 0.63975285
0.80317695 0.00000000 0.64685815
0.96629873 0.00000000 0.54640420
1.00000000 0.04051872 0.38410567
1.00000000 0.10724283 0.23391650
0.00222319 0.05560926 0.62382190
0.00525108 0.03809087 0.64097930
0.04831852 0.01976625 0.62515789
0.17354386 0.00000000 0.58019548
0.51577560 0.00000000 0.64061690
0.80376760 0.00000000 0.64734663
0.96705835 0.00000000 0.54658831
1.00000000 0.04277944 0.38433785
1.00000000 0.10926912 0.23454216
0.00000000 0.14911529 0.53015100
0.00000000 0.14302630 0.53977833
0.01086202 0.06693955 0.62332798
0.13547363 0.00000000 0.59912839
0.51425052 0.00000000 0.65921878
0.81511804 0.00000000 0.65670493
0.97743295 0.00000000 0.54901345
1.00000000 0.05877118 0.38622846
1.00000000 0.12355756 0.23935147
0.00000000 0.26481499 0.53238404
0.00000000 0.26284794 0.53465859
0.00000000 0.24068047 0.56191010
0.08495765 0.17253770 0.77960356
0.59664200 0.05852335 0.83070194
0.92367330 0.02236002 0.75220778
1.00000000 0.20633959 0.60486366
1.00000000 0.28661353 0.46787555
1.00000000 0.31812206 0.35347601
0.00000000 0.50713223 0.67294729
0.00000000 0.50812101 0.67562310
0.00000000 0.51721574 0.70068913
0.03027870 0.53873912 0.80037042
0.52314154 0.51498663 0.91837125
0.96909199 0.44318006 0.86166883
1.00000000 0.51616163 0.71356384
1.00000000 0.55887890 0.63266905
1.00000000 0.57704232 0.56738788
0.00000000 0.81625308 0.76817690
0.00000000 0.81719043 0.76903642
0.00000000 0.82542105 0.77668781
0.00000000 0.85152558 0.80253693
0.00000000 0.87891490 0.83763718
0.82479666 0.82480112 0.82479897
1.00000000 0.80975312 0.82353110
1.00000000 0.82899508 0.82731409
1.00000000 0.83591554 0.81634737
0.00000000 0.99649322 0.42881072
0.00000000 0.99705728 0.42902009
0.00000000 1.00000000 0.43300050
0.00000000 1.00000000 0.46531206
0.35559425 1.00000000 0.56257087
0.73017738 1.00000000 0.70762167
0.95920883 0.99990845 0.68990135
1.00000000 0.96399065 0.91239166
1.00000000 0.96397950 0.94177270
0.00000000 1.00000000 0.15829553
0.00169731 1.00000000 0.16167469
0.09379936 1.00000000 0.19136588
0.29754640 1.00000000 0.29195533
0.51669740 1.00000000 0.44879466
0.83255403 1.00000000 0.76696457
0.96317185 1.00000000 0.92700123
1.00000000 1.00000000 1.00000000
1.00000000 1.00000000 1.00000000
0.30852413 1.00000000 0.20195402
0.31240736 1.00000000 0.20553632
0.34190462 1.00000000 0.23276457
0.42734832 1.00000000 0.31294796
0.64482210 1.00000000 0.53859240
0.86273796 1.00000000 0.80312958
0.98501585 1.00000000 0.97322550
1.00000000 1.00000000 1.00000000
1.00000000 1.00000000 1.00000000
0.00000000 0.14423920 0.62112410
0.00000000 0.14034605 0.62576858
0.00000000 0.10456386 0.65880437
0.03566868 0.00682019 0.67789202
0.29998141 0.00598480 0.84108807
0.69365767 0.00000000 0.82959968
0.91463351 0.00000000 0.73172027
0.99537505 0.00000000 0.56540993
1.00000000 0.05095644 0.38752630
0.00000000 0.14806077 0.61838448
0.00000000 0.14435712 0.62287117
0.00000000 0.10943296 0.65609939
0.03457642 0.00935636 0.67940858
0.29834045 0.00587100 0.84126728
0.69361339 0.00000000 0.83014173
0.91505288 0.00000000 0.73206750
0.99570167 0.00000000 0.56558581
1.00000000 0.05243961 0.38777100
0.00000000 0.17362409 0.61059705
0.00000000 0.17094417 0.61341333
0.00000000 0.14551999 0.63872366
0.02198447 0.02707552 0.68833592
0.28455040 0.00000000 0.84896757
0.69545651 0.00000000 0.83944570
0.92109178 0.00000000 0.73701342
0.99942372 0.00000000 0.56739498
1.00000000 0.06446263 0.38994058
0.00279351 0.25191564 0.65617546
0.00257919 0.25022569 0.65727691
0.00035836 0.23349100 0.66690854
0.00000000 0.12953991 0.74779365
0.30570877 0.13441331 0.96389543
0.77170903 0.03116503 0.94402132
0.99288861 0.06399918 0.79757481
1.00000000 0.20777693 0.61115391
1.00000000 0.25465607 0.45755509
0.00000000 0.44035460 0.79087057
0.00000000 0.44121361 0.79344315
0.00000000 0.44900155 0.81820435
0.04864062 0.47781774 0.90751586
0.34067055 0.51652507 0.98254775
0.83537882 0.44904345 1.00000000
1.00000000 0.45627424 0.86751509
1.00000000 0.51327853 0.73123370
1.00000000 0.53560209 0.63109476
0.00000000 0.73870867 0.97066459
0.00000000 0.73952324 0.97244850
0.00000000 0.74672757 0.98680428
0.00000000 0.77150394 1.00000000
0.39739015 0.79106521 1.00000000
0.77538466 0.78927094 1.00000000
1.00000000 0.76002745 0.96076943
1.00000000 0.78910204 0.87278574
1.00000000 0.80146738 0.83054737
0.00000000 0.95775843 0.89787819
0.00000000 0.95853965 0.89859476
0.00000000 0.96524264 0.90485706
0.00000000 0.98625911 0.92580973
0.00000000 1.00000000 0.95448422
0.58351299 0.99815788 0.96737369
0.95461448 0.95462234 0.95461855
1.00000000 0.95200388 0.95492154
1.00000000 0.95643116 0.95534338
0.00000000 1.00000000 0.43556898
0.00000000 1.00000000 0.43635265
0.00000000 1.00000000 0.44538483
0.00000000 1.00000000 0.50301246
0.44659286 1.00000000 0.63218099
0.77793035 1.00000000 0.81221849
0.93937770 1.00000000 0.92824016
0.99227625 1.00000000 0.95299643
1.00000000 0.99486064 0.98559534
0.19984111 1.00000000 0.21440670
0.20537877 1.00000000 0.21760297
0.25209376 1.00000000 0.24622160
0.39439773 1.00000000 0.34897132
0.59653888 1.00000000 0.52656364
0.83457805 1.00000000 0.78352757
0.96385884 1.00000000 0.94618652
1.00000000 1.00000000 1.00000000
1.00000000 1.00000000 1.00000000
0.00000000 0.18265287 0.58210581
0.00000000 0.18184265 0.58151602
0.00000000 0.17488066 0.57442071
0.00000000 0.13761441 0.56106087
0.08815684 0.04986039 0.90105699
0.39467573 0.13103299 1.00000000
0.78714756 0.01355970 0.91932986
0.94691249 0.00000000 0.75221683
1.00000000 0.00000000 0.57090002
0.00000000 0.18374796 0.58411930
0.00000000 0.18294018 0.58352989
0.00000000 0.17590904 0.57635313
0.00000000 0.13855150 0.55999404
0.08671827 0.05077062 0.89958856
0.39416501 0.13151802 1.00000000
0.78731269 0.01374823 0.91968484
0.94731587 0.00000000 0.75254875
1.00000000 0.00000000 0.57108617
0.00000000 0.19363084 0.60489216
0.00000000 0.19270652 0.60410731
0.00000000 0.18567353 0.59636686
0.00000000 0.15034069 0.57110912
0.07387123 0.04927980 0.89303926
0.39024610 0.13171273 1.00000000
0.79021586 0.00929020 0.92543130
0.95218176 0.00000000 0.75651221
1.00000000 0.00000000 0.57287401
0.00167411 0.24367562 0.70545580
0.00168933 0.24269147 0.70466276
0.00111303 0.23314176 0.69650505
0.00000000 0.18074690 0.68479134
0.10719079 0.19472986 0.95474601
0.42326542 0.27891157 1.00000000
0.85038279 0.12215275 0.98699361
1.00000000 0.10865153 0.80066450
1.00000000 0.19534039 0.61357172
0.00380247 0.38842941 0.91186875
0.00648561 0.38961944 0.91303562
0.02961984 0.40029470 0.92571674
0.13272428 0.44323135 0.95795654
0.30368808 0.51262001 0.98774444
0.54200545 0.55717459 1.00000000
0.93697787 0.46818590 1.00000000
1.00000000 0.47807335 0.86140596
1.00000000 0.50788373 0.73518383
0.23363289 0.68226509 1.00000000
0.23603582 0.68300882 1.00000000
0.25847220 0.68989542 1.00000000
0.34589896 0.71687043 1.00000000
0.50223818 0.76241075 1.00000000
0.68382420 0.80752179 1.00000000
0.96475648 0.77145076 1.00000000
1.00000000 0.77238830 0.94248506
1.00000000 0.78650579 0.88124054
0.13202788 0.86055735 1.00000000
0.13665445 0.86108345 1.00000000
0.17682782 0.86589323 1.00000000
0.31018778 0.88397139 1.00000000
0.51465551 0.91426317 1.00000000
0.77592549 0.93860299 1.00000000
0.93874284 0.94621374 1.00000000
1.00000000 0.93840935 0.99103874
1.00000000 0.94519024 0.96740217
0.00000000 0.99309855 0.93084413
0.00000000 0.99379484 0.93148746
0.00000000 0.99973973 0.93709571
0.00000000 1.00000000 0.95507635
0.00000000 1.00000000 0.97300522
0.66499531 1.00000000 0.98620634
0.90798530 1.00000000 0.99282892
0.99087389 0.99088288 0.99087855
1.00000000 0.99077069 0.99135418
0.00000000 1.00000000 0.45522255
0.00000000 1.00000000 0.45565486
0.00000000 1.00000000 0.46614121
0.03533082 1.00000000 0.52591196
0.48910559 1.00000000 0.65568772
0.78924444 1.00000000 0.83263759
0.94917112 1.00000000 0.95366519
0.99122857 1.00000000 0.98914322
1.00000000 1.00000000 1.00000000
0.00000000 0.19754944 0.55714545
0.00000000 0.19709342 0.55568087
0.00000000 0.19293411 0.54176470
0.00000000 0.16802530 0.50334270
0.00000000 0.19040549 0.76052272
0.14853059 0.23291050 1.00000000
0.43146880 0.25109453 1.00000000
0.81798133 0.01306308 0.94157525
0.95691836 0.00000000 0.75549315
0.00000000 0.19837068 0.55985571
0.00000000 0.19790370 0.55840414
0.00000000 0.19366623 0.54444712
0.00000000 0.16917016 0.50395119
0.00000000 0.19075397 0.75854591
0.14823988 0.23306882 1.00000000
0.43139490 0.25151898 1.00000000
0.81824901 0.01314675 0.94193516
0.95732177 0.00000000 0.75582287
0.00000000 0.20609613 0.58591291
0.00000000 0.20550767 0.58429613
0.00000000 0.20118087 0.56993556
0.00000000 0.17681551 0.52340363
0.00000000 0.18994257 0.74734019
0.14532818 0.23274907 1.00000000
0.43113989 0.25377471 1.00000000
0.82200546 0.00806540 0.94754654
0.96223181 0.00000000 0.75978522
0.00000000 0.24808540 0.70443330
0.00000000 0.24745576 0.70274328
0.00000000 0.24092310 0.68709885
0.00000000 0.20319632 0.64817204
0.00266111 0.24633154 0.88667896
0.20961442 0.34573928 1.00000000
0.47630836 0.35937051 1.00000000
0.88213562 0.12116119 1.00000000
1.00000000 0.11728645 0.79939109
0.02571496 0.36929778 0.95459338
0.02510697 0.36877851 0.95523137
0.05162278 0.38332504 0.95755411
0.14241639 0.43381467 0.97391524
0.27223419 0.51277236 0.99991932
0.42170036 0.58846922 1.00000000
0.61950442 0.59718718 1.00000000
0.96559365 0.47353181 1.00000000
1.00000000 0.48453447 0.85831280
0.36853771 0.65706630 1.00000000
0.36995769 0.65790062 1.00000000
0.38325545 0.66561057 1.00000000
0.43790071 0.69570868 1.00000000
0.54362424 0.74857108 1.00000000
0.67138548 0.80820934 1.00000000
0.79265654 0.82732350 1.00000000
1.00000000 0.77154973 1.00000000
1.00000000 0.77784367 0.93840114
0.48139839 0.80863300 1.00000000
0.48291173 0.80927065 1.00000000
0.49698054 0.81514877 1.00000000
0.55368202 0.83801104 1.00000000
0.66164062 0.87917856 1.00000000
0.81030629 0.92708809 1.00000000
0.91060975 0.95310396 1.00000000
0.99781121 0.94035125 1.00000000
1.00000000 0.94148824 0.98585383
0.27635827 0.89127145 1.00000000
0.27914309 0.89177419 1.00000000
0.30506638 0.89634854 1.00000000
0.40971542 0.91309128 1.00000000
0.59150680 0.94129710 1.00000000
0.80303340 0.97266117 1.00000000
0.94213926 0.98700699 1.00000000
0.98690551 0.98897553 1.00000000
1.00000000 0.98761885 0.99905159
0.00000000 0.99655853 0.93509057
0.00000000 0.99731951 0.93577360
0.00000000 1.00000000 0.94180649
0.00000000 1.00000000 0.96086080
0.01693039 1.00000000 0.97736306
0.69180525 1.00000000 0.98996745
0.92168687 1.00000000 0.99775777
0.98370524 1.00000000 0.99975135
1.00000000 1.00000000 1.00000000
