media/CinemaGamut_CanonLog3-to-CMT709_33_Ver.1.0.cube
# Gamut : Cinema Gamut to BT.709
# Gamma : Canon Log 3 to CMT 709
# Range : Full in / Full out
# Version : 1.0
# Creation Date: 2022/9/13
# Copyright(c) 2022 Canon Inc. All Rights Reserved.
LUT_3D_SIZE 9
# LUT_3D_INPUT_RANGE 0.0 1.0
0.00000000 0.00000000 0.00000000
0.00000000 0.00000000 0.00000000
0.29298899 0.00435566 0.04044994
0.53325130 0.00000000 0.07672235
0.73052987 0.00000000 0.10403240
0.90226779 0.00000000 0.10475643
1.00000000 0.02077453 0.10340426
1.00000000 0.14568453 0.12190045
1.00000000 0.18835296 0.11234982
0.00000000 0.00000000 0.00000000
0.00000000 0.00000000 0.00000000
0.29298899 0.00435566 0.04044994
0.53325130 0.00000000 0.07672235
0.73052987 0.00000000 0.10403240
0.90226779 0.00000000 0.10475643
1.00000000 0.02077453 0.10340426
1.00000000 0.14568453 0.12190045
1.00000000 0.18835296 0.11234982
0.00695203 0.22390316 0.04820107
0.00695203 0.22390316 0.04820107
0.23959514 0.25648549 0.00253730
0.52752710 0.24338619 0.00348564
0.78416772 0.17938657 0.02010057
0.96901565 0.13788003 0.07537433
1.00000000 0.25006797 0.20102253
1.00000000 0.30911758 0.24474295
1.00000000 0.33287953 0.25215243
0.00139046 0.40349956 0.08613833
0.00139046 0.40349956 0.08613833
0.14992257 0.44619972 0.00214397
0.44020974 0.47035879 0.00000000
0.74911292 0.43998817 0.00000000
1.00000000 0.38058447 0.03731703
1.00000000 0.44336446 0.30329678
1.00000000 0.48120344 0.38449038
1.00000000 0.49556006 0.40858953
0.00000000 0.56443231 0.07292547
0.00000000 0.56443231 0.07292547
0.02148330 0.60539126 0.00000000
0.30571654 0.64789454 0.00000000
0.61286371 0.65779928 0.00000000
0.95020031 0.60781655 0.00000000
1.00000000 0.60592841 0.32467110
1.00000000 0.62811706 0.48752434
1.00000000 0.63529165 0.53734034
0.00000000 0.71403912 0.00000000
0.00000000 0.71403912 0.00000000
0.00000000 0.74915965 0.00000000
0.09368041 0.79900287 0.00000000
0.41745305 0.83354000 0.00000000
0.76763492 0.82665138 0.00000000
1.00000000 0.77119622 0.12871221
1.00000000 0.76540606 0.55143239
1.00000000 0.76174012 0.64606518
0.00000000 0.82848496 0.00000000
0.00000000 0.82848496 0.00000000
0.00000000 0.85861494 0.00000000
0.00000000 0.91001200 0.00000000
0.11300394 0.96008216 0.00000000
0.50469307 0.98453543 0.00000000
0.88212245 0.95296145 0.00000000
1.00000000 0.88748949 0.48254941
1.00000000 0.86495387 0.71239108
0.00000000 0.87675068 0.00000000
0.00000000 0.87675068 0.00000000
0.00000000 0.90653645 0.00000000
0.00000000 0.96030426 0.00000000
0.00000000 1.00000000 0.00000000
0.46543154 1.00000000 0.04817786
0.72890210 1.00000000 0.34018413
0.92422752 0.99819449 0.27356412
1.00000000 0.93574896 0.63636127
0.00000000 0.89519650 0.00000000
0.00000000 0.89519650 0.00000000
0.00000000 0.92589741 0.00000000
0.00000000 0.98059418 0.00000000
0.00000000 1.00000000 0.00000000
0.51960407 1.00000000 0.30871267
0.73825069 1.00000000 0.55559060
0.84438992 1.00000000 0.63089497
0.94368352 1.00000000 0.58384895
0.00000000 0.00000000 0.00000000
0.00000000 0.00000000 0.00000000
0.29298899 0.00435566 0.04044994
0.53325130 0.00000000 0.07672235
0.73052987 0.00000000 0.10403240
0.90226779 0.00000000 0.10475643
1.00000000 0.02077453 0.10340426
1.00000000 0.14568453 0.12190045
1.00000000 0.18835296 0.11234982
0.00000000 0.00000000 0.00000000
0.01925908 0.01925908 0.01925908
0.29298899 0.00435566 0.04044994
0.53325130 0.00000000 0.07672235
0.73052987 0.00000000 0.10403240
0.90226779 0.00000000 0.10475643
1.00000000 0.02077453 0.10340426
1.00000000 0.14568453 0.12190045
1.00000000 0.18835296 0.11234982
0.00695203 0.22390316 0.04820107
0.00695203 0.22390316 0.04820107
0.23959514 0.25648549 0.00253730
0.52752710 0.24338619 0.00348564
0.78416772 0.17938657 0.02010057
0.96901565 0.13788003 0.07537433
1.00000000 0.25006797 0.20102253
1.00000000 0.30911758 0.24474295
1.00000000 0.33287953 0.25215243
0.00139046 0.40349956 0.08613833
0.00139046 0.40349956 0.08613833
0.14992257 0.44619972 0.00214397
0.44020974 0.47035879 0.00000000
0.74911292 0.43998817 0.00000000
1.00000000 0.38058447 0.03731703
1.00000000 0.44336446 0.30329678
1.00000000 0.48120344 0.38449038
1.00000000 0.49556006 0.40858953
0.00000000 0.56443231 0.07292547
0.00000000 0.56443231 0.07292547
0.02148330 0.60539126 0.00000000
0.30571654 0.64789454 0.00000000
0.61286371 0.65779928 0.00000000
0.95020031 0.60781655 0.00000000
1.00000000 0.60592841 0.32467110
1.00000000 0.62811706 0.48752434
1.00000000 0.63529165 0.53734034
0.00000000 0.71403912 0.00000000
0.00000000 0.71403912 0.00000000
0.00000000 0.74915965 0.00000000
0.09368041 0.79900287 0.00000000
0.41745305 0.83354000 0.00000000
0.76763492 0.82665138 0.00000000
1.00000000 0.77119622 0.12871221
1.00000000 0.76540606 0.55143239
1.00000000 0.76174012 0.64606518
0.00000000 0.82848496 0.00000000
0.00000000 0.82848496 0.00000000
0.00000000 0.85861494 0.00000000
0.00000000 0.91001200 0.00000000
0.11300394 0.96008216 0.00000000
0.50469307 0.98453543 0.00000000
0.88212245 0.95296145 0.00000000
1.00000000 0.88748949 0.48254941
1.00000000 0.86495387 0.71239108
0.00000000 0.87675068 0.00000000
0.00000000 0.87675068 0.00000000
0.00000000 0.90653645 0.00000000
0.00000000 0.96030426 0.00000000
0.00000000 1.00000000 0.00000000
0.46543154 1.00000000 0.04817786
0.72890210 1.00000000 0.34018413
0.92422752 0.99819449 0.27356412
1.00000000 0.93574896 0.63636127
0.00000000 0.89519650 0.00000000
0.00000000 0.89519650 0.00000000
0.00000000 0.92589741 0.00000000
0.00000000 0.98059418 0.00000000
0.00000000 1.00000000 0.00000000
0.51960407 1.00000000 0.30871267
0.73825069 1.00000000 0.55559060
0.84438992 1.00000000 0.63089497
0.94368352 1.00000000 0.58384895
0.01759606 0.00585707 0.15200360
0.01759606 0.00585707 0.15200360
0.24393604 0.00000000 0.20691239
0.48693635 0.00000000 0.25303826
0.69100028 0.00000000 0.26456070
0.87142788 0.00000000 0.24866124
0.99655121 0.00000000 0.20028577
1.00000000 0.12280298 0.15884555
1.00000000 0.17362523 0.11635015
0.01759606 0.00585707 0.15200360
0.01759606 0.00585707 0.15200360
0.24393604 0.00000000 0.20691239
0.48693635 0.00000000 0.25303826
0.69100028 0.00000000 0.26456070
0.87142788 0.00000000 0.24866124
0.99655121 0.00000000 0.20028577
1.00000000 0.12280298 0.15884555
1.00000000 0.17362523 0.11635015
0.00000000 0.23201056 0.21815891
0.00000000 0.23201056 0.21815891
0.23919376 0.23919376 0.23919376
0.56727560 0.18073123 0.23502160
0.79114648 0.12233411 0.23539560
0.95638608 0.11106052 0.23556088
1.00000000 0.22728942 0.26144166
1.00000000 0.29582472 0.26198575
1.00000000 0.32160471 0.25209415
0.00000000 0.47453141 0.24913568
0.00000000 0.47453141 0.24913568
0.05464430 0.50244816 0.16567819
0.46556618 0.49201638 0.10563521
0.80552453 0.42433928 0.10434105
1.00000000 0.38646191 0.22122731
1.00000000 0.44746760 0.35370425
1.00000000 0.48375287 0.40389015
1.00000000 0.49785572 0.41891839
0.00000000 0.66893957 0.16805677
0.00000000 0.66893957 0.16805677
0.00000000 0.70650542 0.00366597
0.23717532 0.72839921 0.00000000
0.65396855 0.70116425 0.00000000
1.00000000 0.61752340 0.00000000
1.00000000 0.62372540 0.37707984
1.00000000 0.64389253 0.51628826
1.00000000 0.65051772 0.55852595
0.00000000 0.79732665 0.00214799
0.00000000 0.79732665 0.00214799
0.00000000 0.83023349 0.00000000
0.00000000 0.87116441 0.00000000
0.39583222 0.88851832 0.00000000
0.80020755 0.86060761 0.00000000
1.00000000 0.79944312 0.26674112
1.00000000 0.79272228 0.60880702
1.00000000 0.78822916 0.68702179
0.00000000 0.90247453 0.00000000
0.00000000 0.90247453 0.00000000
0.00000000 0.93112196 0.00000000
0.00000000 0.97298480 0.00000000
0.09383500 1.00000000 0.00000000
0.55834902 1.00000000 0.00000000
0.90605237 0.97903369 0.00000000
1.00000000 0.91544401 0.61306258
1.00000000 0.89417576 0.77918639
0.00000000 0.94717459 0.00000000
0.00000000 0.94717459 0.00000000
0.00000000 0.97248974 0.00000000
0.00000000 1.00000000 0.00000000
0.32340116 1.00000000 0.05885105
0.63492248 1.00000000 0.41466671
0.82265131 1.00000000 0.59452607
0.94835673 0.99996067 0.64857220
1.00000000 0.96012163 0.79794476
0.00000000 0.96216533 0.00000000
0.00000000 0.96216533 0.00000000
0.00000000 0.98763405 0.00000000
0.00000000 1.00000000 0.00000000
0.42381883 1.00000000 0.24602826
0.68096301 1.00000000 0.53736076
0.84142883 1.00000000 0.73190478
0.92142410 1.00000000 0.82421761
0.97316508 0.99780004 0.85833517
0.03681034 0.01680868 0.30836816
0.03681034 0.01680868 0.30836816
0.19885284 0.00000000 0.29522287
0.43847091 0.00000000 0.36772641
0.64968816 0.00000000 0.38946426
0.83610541 0.00000000 0.37949879
0.97718501 0.00000000 0.32752360
1.00000000 0.06899619 0.25272152
1.00000000 0.14215501 0.17383540
0.03681034 0.01680868 0.30836816
0.03681034 0.01680868 0.30836816
0.19885284 0.00000000 0.29522287
0.43847091 0.00000000 0.36772641
0.64968816 0.00000000 0.38946426
0.83610541 0.00000000 0.37949879
0.97718501 0.00000000 0.32752360
1.00000000 0.06899619 0.25272152
1.00000000 0.14215501 0.17383540
0.00000000 0.17962031 0.31673922
0.00000000 0.17962031 0.31673922
0.19502447 0.14114864 0.50396031
0.52803329 0.09262848 0.47287563
0.76011679 0.03954951 0.43261165
0.93929816 0.02413877 0.39492090
1.00000000 0.16309302 0.36248194
1.00000000 0.25341022 0.32418467
1.00000000 0.29019636 0.27489350
0.00000000 0.43414386 0.41047033
0.00000000 0.43414386 0.41047033
0.01198459 0.46042824 0.43795088
0.44771170 0.44771209 0.44771190
0.75498330 0.40080657 0.43941900
0.96902908 0.36527205 0.43084913
1.00000000 0.42277050 0.45393804
1.00000000 0.46535159 0.45513403
1.00000000 0.48549494 0.43761444
0.00000000 0.64953626 0.38930884
0.00000000 0.64953626 0.38930884
0.00000000 0.67287733 0.36561693
0.23533698 0.69895019 0.32195186
0.64257048 0.67312026 0.31521672
0.97562703 0.60644288 0.33292687
1.00000000 0.62065026 0.50085417
1.00000000 0.64761629 0.57179589
1.00000000 0.65958353 0.58874784
0.00000000 0.84625831 0.20986971
0.00000000 0.84625831 0.20986971
0.00000000 0.86483741 0.15386255
0.00000000 0.89503901 0.01052676
0.41498123 0.90337843 0.00000000
0.80819109 0.87067348 0.00000000
1.00000000 0.81340998 0.40084578
1.00000000 0.81055186 0.66042524
1.00000000 0.80974018 0.72474374
0.00000000 1.00000000 0.00000000
0.00000000 1.00000000 0.00000000
0.00000000 1.00000000 0.00000000
0.00000000 1.00000000 0.00000000
0.37235324 1.00000000 0.11683044
0.66620135 1.00000000 0.26891869
0.92745600 0.99707057 0.32492526
1.00000000 0.94444543 0.75444070
1.00000000 0.92971802 0.85621979
0.00000000 1.00000000 0.00000000
0.00000000 1.00000000 0.00000000
0.05046956 1.00000000 0.02069657
0.40522928 1.00000000 0.29859296
0.61796742 1.00000000 0.49044798
0.79759825 1.00000000 0.67687009
0.92788271 1.00000000 0.84161140
0.98764293 0.98764293 0.98764293
0.98764293 0.98764293 0.98764293
0.13222089 1.00000000 0.00000000
0.13222089 1.00000000 0.00000000
0.32607837 1.00000000 0.19109812
0.52625786 1.00000000 0.40186452
0.69859306 1.00000000 0.59149624
0.85304347 1.00000000 0.78145841
0.96588748 0.99900185 0.94408089
0.98764293 0.98764293 0.98764293
0.98764293 0.98764293 0.98764293
0.03368378 0.02788331 0.46066673
0.03368378 0.02788331 0.46066673
0.15155419 0.00000000 0.39571184
0.39069885 0.00000000 0.46282855
0.60957669 0.00000000 0.50013024
0.80074160 0.00000000 0.50007091
0.94837349 0.00000000 0.45595469
1.00000000 0.01006077 0.36635299
1.00000000 0.09807578 0.26943273
0.03368378 0.02788331 0.46066673
0.03368378 0.02788331 0.46066673
0.15155419 0.00000000 0.39571184
0.39069885 0.00000000 0.46282855
0.60957669 0.00000000 0.50013024
0.80074160 0.00000000 0.50007091
0.94837349 0.00000000 0.45595469
1.00000000 0.01006077 0.36635299
1.00000000 0.09807578 0.26943273
0.00000000 0.17159793 0.41234811
0.00000000 0.17159793 0.41234811
0.08056187 0.06420934 0.56734909
0.44516021 0.01575994 0.60986276
0.69418437 0.00000000 0.58468191
0.89230385 0.00000000 0.54644268
1.00000000 0.05383468 0.48273494
1.00000000 0.18712354 0.40757691
1.00000000 0.23734418 0.33113116
0.00000000 0.38457738 0.50845804
0.00000000 0.38457738 0.50845804
0.04120297 0.39794075 0.60873254
0.41006374 0.38319751 0.68778233
0.74611022 0.31923621 0.67841127
0.97565913 0.27962495 0.61266780
1.00000000 0.36510239 0.55838686
1.00000000 0.42345049 0.51768784
1.00000000 0.44986485 0.47389840
0.00000000 0.61217171 0.57816031
0.00000000 0.61217171 0.57816031
0.00000000 0.63527944 0.60086540
0.11353236 0.66132841 0.63235399
0.62694257 0.62694468 0.62694367
0.93402450 0.57649925 0.61176494
1.00000000 0.59553290 0.62587678
1.00000000 0.62662223 0.63335708
1.00000000 0.64178098 0.62309873
0.00000000 0.81704470 0.49047412
0.00000000 0.81704470 0.49047412
0.00000000 0.83589835 0.48392303
0.00000000 0.86532864 0.47352579
0.43059333 0.86545217 0.48843532
0.80109926 0.83505274 0.48136579
1.00000000 0.78440977 0.58944698
1.00000000 0.79741821 0.72288677
1.00000000 0.80618508 0.75626644
0.00000000 0.97299587 0.18716118
0.00000000 0.97299587 0.18716118
0.00000000 0.98720386 0.17341499
0.00000000 1.00000000 0.12468719
0.40841700 1.00000000 0.32721668
0.67241931 1.00000000 0.41198914
0.92041276 0.99108728 0.24048179
1.00000000 0.93856914 0.76939545
1.00000000 0.93191028 0.86942450
0.00000000 1.00000000 0.00000000
0.00000000 1.00000000 0.00000000
0.03813282 1.00000000 0.14530004
0.38709658 1.00000000 0.33469682
0.60560188 1.00000000 0.50776418
0.78765716 1.00000000 0.67995179
0.91953373 1.00000000 0.83161462
0.98345979 0.99505481 0.93185419
0.98764293 0.98764293 0.98764293
0.21720944 1.00000000 0.12505903
0.21720944 1.00000000 0.12505903
0.35614702 1.00000000 0.25571720
0.53256389 1.00000000 0.42751294
0.69994756 1.00000000 0.60509929
0.85456186 1.00000000 0.79009380
0.96853785 0.99642862 0.95100724
0.98764293 0.98764293 0.98764293
0.98764293 0.98764293 0.98764293
0.00633914 0.07306382 0.55938395
0.00633914 0.07306382 0.55938395
0.10124344 0.00128014 0.54659928
0.32214269 0.00000000 0.56682897
0.55807786 0.00000000 0.60524782
0.76234350 0.00000000 0.61513192
0.91628055 0.00000000 0.57948649
0.99469198 0.00000000 0.48999835
1.00000000 0.03567394 0.38190456
0.00633914 0.07306382 0.55938395
0.00633914 0.07306382 0.55938395
0.10124344 0.00128014 0.54659928
0.32214269 0.00000000 0.56682897
0.55807786 0.00000000 0.60524782
0.76234350 0.00000000 0.61513192
0.91628055 0.00000000 0.57948649
0.99469198 0.00000000 0.48999835
1.00000000 0.03567394 0.38190456
0.00000000 0.18661497 0.50725343
0.00000000 0.18661497 0.50725343
0.00858442 0.07674893 0.60684138
0.30916248 0.00000000 0.68664842
0.60333142 0.00000000 0.68355839
0.82210819 0.00000000 0.66572506
0.97078800 0.00000000 0.60970853
1.00000000 0.07729565 0.51103784
1.00000000 0.15837397 0.41133237
0.00000000 0.33602864 0.56911753
0.00000000 0.33602864 0.56911753
0.00000000 0.34798839 0.67020978
0.28943270 0.31053546 0.89886141
0.69483192 0.20966567 0.91022546
0.95155063 0.16141214 0.81107149
1.00000000 0.29020083 0.68550680
1.00000000 0.37059290 0.60000780
1.00000000 0.40381020 0.53024197
0.00000000 0.55863107 0.69623457
0.00000000 0.55863107 0.69623457
0.00000000 0.57554104 0.75579244
0.15069491 0.59192496 0.87435395
0.59005421 0.57007451 0.87077572
0.93020330 0.50342015 0.85241342
1.00000000 0.53900922 0.74940045
1.00000000 0.58448648 0.69683691
1.00000000 0.60559424 0.65895092
0.00000000 0.77761716 0.73212096
0.00000000 0.77761716 0.73212096
0.00000000 0.79762551 0.75127757
0.00000000 0.82766502 0.78276654
0.33390472 0.82943712 0.79846522
0.78756453 0.78756956 0.78756714
1.00000000 0.75919438 0.78010809
1.00000000 0.78060435 0.79219520
1.00000000 0.79211048 0.79138087
0.00000000 0.94717323 0.55416844
0.00000000 0.94717323 0.55416844
0.00000000 0.96284191 0.55680645
0.00000000 0.98624699 0.57044521
0.17499789 0.99691803 0.60079851
0.63636016 0.97876126 0.66265276
0.91793141 0.95019350 0.65999994
1.00000000 0.91476432 0.82454115
1.00000000 0.91930522 0.88566702
0.00000000 1.00000000 0.19866233
0.00000000 1.00000000 0.19866233
0.00000000 1.00000000 0.26873352
0.30003832 1.00000000 0.39657110
0.55633646 1.00000000 0.53744833
0.75383572 1.00000000 0.68543124
0.89215488 1.00000000 0.80214265
0.97268046 0.99441609 0.86877436
0.99581761 0.98363746 0.95503839
0.00000000 1.00000000 0.10128642
0.00000000 1.00000000 0.10128642
0.24900323 1.00000000 0.23559146
0.47063773 1.00000000 0.40814099
0.65863369 1.00000000 0.58274545
0.82450189 1.00000000 0.76157707
0.94635091 0.99908028 0.91713958
0.98764293 0.98764293 0.98764293
0.98764293 0.98764293 0.98764293
0.00000000 0.15418525 0.55268896
0.00000000 0.15418525 0.55268896
0.00637756 0.07443258 0.61297939
0.18679314 0.00511817 0.67828596
0.47272814 0.00000000 0.73313903
0.70465799 0.00000000 0.72983463
0.87842118 0.00000000 0.70057515
0.96879606 0.00000000 0.61449877
1.00000000 0.00000000 0.50404781
0.00000000 0.15418525 0.55268896
0.00000000 0.15418525 0.55268896
0.00637756 0.07443258 0.61297939
0.18679314 0.00511817 0.67828596
0.47272814 0.00000000 0.73313903
0.70465799 0.00000000 0.72983463
0.87842118 0.00000000 0.70057515
0.96879606 0.00000000 0.61449877
1.00000000 0.00000000 0.50404781
0.00000000 0.21048816 0.55978198
0.00000000 0.21048816 0.55978198
0.00000000 0.15952012 0.59605895
0.11192952 0.00000000 0.72451454
0.46858268 0.00000000 0.79699985
0.73316118 0.00000000 0.77564999
0.91522602 0.00000000 0.73076665
0.99505790 0.00000000 0.62961216
1.00000000 0.03344297 0.51483260
0.00000000 0.32418496 0.63674038
0.00000000 0.32418496 0.63674038
0.00000000 0.30109166 0.68796689
0.15485902 0.29349330 0.91372247
0.52532791 0.26000539 0.96926189
0.87440966 0.11272850 0.94507038
1.00000000 0.19273347 0.82437463
1.00000000 0.30973238 0.69994869
1.00000000 0.35350188 0.60863026
0.00000000 0.51336088 0.77249437
0.00000000 0.51336088 0.77249437
0.00000000 0.53257191 0.83250375
0.03273017 0.56008801 0.94433979
0.48729877 0.54687509 0.99580352
0.84169999 0.48548996 1.00000000
1.00000000 0.48248456 0.89462639
1.00000000 0.54279039 0.78032700
1.00000000 0.56935459 0.71510740
0.00000000 0.72099023 0.88763538
0.00000000 0.72099023 0.88763538
0.00000000 0.73706774 0.92837217
0.00000000 0.76009288 0.99026340
0.43384981 0.76322319 0.99932119
0.75533242 0.74408255 1.00000000
1.00000000 0.70999785 0.94591377
1.00000000 0.74220878 0.85698898
1.00000000 0.76051058 0.82222973
0.00000000 0.90766926 0.85174145
0.00000000 0.90766926 0.85174145
0.00000000 0.92576673 0.86878522
0.00000000 0.95384626 0.89722975
0.00000000 0.97379280 0.92315344
0.56342884 0.94971051 0.92187194
0.90900777 0.90901590 0.90901199
1.00000000 0.90024677 0.90766848
1.00000000 0.90913497 0.91270255
0.00000000 1.00000000 0.57881714
0.00000000 1.00000000 0.57881714
0.00000000 1.00000000 0.58909284
0.00000000 1.00000000 0.63128520
0.35185926 1.00000000 0.70387669
0.66996676 1.00000000 0.78973265
0.86225958 0.99388924 0.86243098
0.96754769 0.98609971 0.84802824
1.00000000 0.97109911 0.94648494
0.00000000 1.00000000 0.25121322
0.00000000 1.00000000 0.25121322
0.06252348 1.00000000 0.32543551
0.39330386 1.00000000 0.45598858
0.61052510 1.00000000 0.60367379
0.79239167 1.00000000 0.76203627
0.92120465 0.99836975 0.89518550
0.97777277 0.99362224 0.96464622
0.98764293 0.98764293 0.98764293
0.00000000 0.19397970 0.52128717
0.00000000 0.19397970 0.52128717
0.00000000 0.16823239 0.51795126
0.00397067 0.09246890 0.66198658
0.29306233 0.01397931 0.88312538
0.60344672 0.00000000 0.88042304
0.81532045 0.00000000 0.82316361
0.93258973 0.00000000 0.73681636
0.99216670 0.00000000 0.62909229
0.00000000 0.19397970 0.52128717
0.00000000 0.19397970 0.52128717
0.00000000 0.16823239 0.51795126
0.00397067 0.09246890 0.66198658
0.29306233 0.01397931 0.88312538
0.60344672 0.00000000 0.88042304
0.81532045 0.00000000 0.82316361
0.93258973 0.00000000 0.73681636
0.99216670 0.00000000 0.62909229
0.00000000 0.22908336 0.56657255
0.00000000 0.22908336 0.56657255
0.00000000 0.20247256 0.55612125
0.00000000 0.09460751 0.61569248
0.25869384 0.00000000 0.91423164
0.60516580 0.00000000 0.92088781
0.83759721 0.00000000 0.85586723
0.95708939 0.00000000 0.75637074
1.00000000 0.00000000 0.63786321
0.00320876 0.31857293 0.68227018
0.00320876 0.31857293 0.68227018
0.00000000 0.28546203 0.68997126
0.04450908 0.29558912 0.89370515
0.33666639 0.31923399 0.98500380
0.68178869 0.26746287 1.00000000
0.96015644 0.13439408 0.98225227
1.00000000 0.24348628 0.82440607
1.00000000 0.30822631 0.70644631
0.00000000 0.47731266 0.84888443
0.00000000 0.47731266 0.84888443
0.00000000 0.49495774 0.90977735
0.13108197 0.52582525 0.99220531
0.38145008 0.55517919 1.00000000
0.68784903 0.53721330 1.00000000
0.99059119 0.46246293 1.00000000
1.00000000 0.50912052 0.87496769
1.00000000 0.54247862 0.78804574
0.00000000 0.68272957 0.99426220
0.00000000 0.68272957 0.99426220
0.00000000 0.69907214 1.00000000
0.17315118 0.72651033 1.00000000
0.41261140 0.75328882 1.00000000
0.68917147 0.74903837 1.00000000
0.93971244 0.71571681 1.00000000
1.00000000 0.71889028 0.93965302
1.00000000 0.74125853 0.87279686
0.00000000 0.84895272 1.00000000
0.00000000 0.84895272 1.00000000
0.00000000 0.85993614 1.00000000
0.09236010 0.87540923 1.00000000
0.45604896 0.88725929 1.00000000
0.70831235 0.89302254 1.00000000
0.89273439 0.89173641 1.00000000
1.00000000 0.87899161 0.97632801
1.00000000 0.89208761 0.93817167
0.00000000 0.96694504 0.90608675
0.00000000 0.96694504 0.90608675
0.00000000 0.98287226 0.92122889
0.00000000 1.00000000 0.94519274
0.00000000 1.00000000 0.96055664
0.54307683 1.00000000 0.96833110
0.81239293 0.98659427 0.97174523
0.96462794 0.96463777 0.96463304
0.99681523 0.96358106 0.96579013
0.00000000 1.00000000 0.60225455
0.00000000 1.00000000 0.60225455
0.00000000 1.00000000 0.61606336
0.00000000 1.00000000 0.67090528
0.44365895 1.00000000 0.74886672
0.71034930 1.00000000 0.83862914
0.88733242 0.99889584 0.92021519
0.96218235 0.99282650 0.96117294
0.98764293 0.98764293 0.98764293
0.00000000 0.21086736 0.50244234
0.00000000 0.21086736 0.50244234
0.00000000 0.19338232 0.47979933
0.00000000 0.17363684 0.53478271
0.05702448 0.08438501 0.92935780
0.37262599 0.11819715 1.00000000
0.69728659 0.00000000 0.98068795
0.86636220 0.00000000 0.85894855
0.95586930 0.00000000 0.74990901
0.00000000 0.21086736 0.50244234
0.00000000 0.21086736 0.50244234
0.00000000 0.19338232 0.47979933
0.00000000 0.17363684 0.53478271
0.05702448 0.08438501 0.92935780
0.37262599 0.11819715 1.00000000
0.69728659 0.00000000 0.98068795
0.86636220 0.00000000 0.85894855
0.95586930 0.00000000 0.74990901
0.00000000 0.24061821 0.56114127
0.00000000 0.24061821 0.56114127
0.00000000 0.22042704 0.53349046
0.00000000 0.16354952 0.52759010
0.00638661 0.06712749 0.92815608
0.35877371 0.11178734 1.00000000
0.70377362 0.00000000 1.00000000
0.88798071 0.00000000 0.88731735
0.97658224 0.00000000 0.76624844
0.00149474 0.31712641 0.70058227
0.00149474 0.31712641 0.70058227
0.00000000 0.28998941 0.69040381
0.00000000 0.31293093 0.84150245
0.19065781 0.34572136 0.99314470
0.44340188 0.38042809 1.00000000
0.77278846 0.30103473 1.00000000
0.99418341 0.16791126 0.98700537
1.00000000 0.26508272 0.82187482
0.00000000 0.45149147 0.90886737
0.00000000 0.45149147 0.90886737
0.01336434 0.46974149 0.96578946
0.16466450 0.51043544 1.00000000
0.33922023 0.55532642 1.00000000
0.53354576 0.58326355 1.00000000
0.82294467 0.53865373 1.00000000
1.00000000 0.48250175 0.99640814
1.00000000 0.52243673 0.87018010
0.11535445 0.64832092 1.00000000
0.11535445 0.64832092 1.00000000
0.19884373 0.66584754 1.00000000
0.32791122 0.69831768 1.00000000
0.46794052 0.73356695 1.00000000
0.61983013 0.76188233 1.00000000
0.83011656 0.74995148 1.00000000
1.00000000 0.70687809 1.00000000
1.00000000 0.72927151 0.92558909
0.18638742 0.80163345 1.00000000
0.18638742 0.80163345 1.00000000
0.27050072 0.81461931 1.00000000
0.40357556 0.83861129 1.00000000
0.54768524 0.86577603 1.00000000
0.70124693 0.89082187 1.00000000
0.86083554 0.89564831 1.00000000
0.98056421 0.88041133 1.00000000
1.00000000 0.88363791 0.97187071
0.00000000 0.89617975 1.00000000
0.00000000 0.89617975 1.00000000
0.00000000 0.90549037 1.00000000
0.29855029 0.92115793 1.00000000
0.52988767 0.93614151 1.00000000
0.72978989 0.94905077 1.00000000
0.88270828 0.95743236 1.00000000
0.95804966 0.95837840 1.00000000
1.00000000 0.95584571 0.98780765
0.00000000 0.98732765 0.92551836
0.00000000 0.98732765 0.92551836
0.00000000 1.00000000 0.94074452
0.00000000 1.00000000 0.96367814
0.12153984 1.00000000 0.97214657
0.60779813 1.00000000 0.97950230
0.84343397 0.99966085 0.98528133
0.94492989 0.99176970 0.98740943
0.98764293 0.98764293 0.98764293
