media/CinemaGamut_CanonLog3-to-CMT709_33_Ver.1.0.cube
# Gamut : Cinema Gamut to BT.709
# Gamma : Canon Log 3 to CMT 709
# Range : Full in / Full out
# Version : 1.0
# Creation Date: 2022/9/13
# Copyright(c) 2022 Canon Inc. All Rights Reserved.
LUT_3D_SIZE 33
# LUT_3D_INPUT_RANGE 0.0 1.0
0.00000000 0.00000000 0.00000000
0.00000000 0.00000000 0.00000000
0.00000000 0.00000000 0.00000000
0.00000000 0.00000000 0.00000000
0.00000000 0.00000000 0.00000000
0.10638884 0.01069402 0.01891788
0.15066238 0.01496324 0.02748743
0.22109561 0.01026271 0.03297774
0.29298899 0.00435566 0.04044994
0.35944222 0.00000000 0.04882540
0.42119923 0.00000000 0.05767418
0.47883082 0.00000000 0.06710635
0.53325130 0.00000000 0.07672235
0.58544442 0.00000000 0.08566291
0.63571755 0.00000000 0.09320992
0.68399551 0.00000000 0.09940434
0.73052987 0.00000000 0.10403240
0.77579393 0.00000000 0.10663074
0.81959046 0.00000000 0.10748124
0.86166490 0.00000000 0.10699000
0.90226779 0.00000000 0.10475643
0.94103469 0.00000000 0.10133058
0.97382013 0.00000000 0.09748931
0.99628292 0.00000000 0.09667030
1.00000000 0.02077453 0.10340426
1.00000000 0.06052892 0.11072301
1.00000000 0.09733924 0.11651342
1.00000000 0.12506413 0.12024956
1.00000000 0.14568453 0.12190045
1.00000000 0.16127587 0.12172566
1.00000000 0.17315518 0.12002951
1.00000000 0.18208532 0.11695755
1.00000000 0.18835296 0.11234982
0.00000000 0.00000000 0.00000000
0.00000000 0.00000000 0.00000000
0.00000000 0.00000000 0.00000000
0.00000000 0.00000000 0.00000000
0.00000000 0.00000000 0.00000000
0.10638884 0.01069402 0.01891788
0.15066238 0.01496324 0.02748743
0.22109561 0.01026271 0.03297774
0.29298899 0.00435566 0.04044994
0.35944222 0.00000000 0.04882540
0.42119923 0.00000000 0.05767418
0.47883082 0.00000000 0.06710635
0.53325130 0.00000000 0.07672235
0.58544442 0.00000000 0.08566291
0.63571755 0.00000000 0.09320992
0.68399551 0.00000000 0.09940434
0.73052987 0.00000000 0.10403240
0.77579393 0.00000000 0.10663074
0.81959046 0.00000000 0.10748124
0.86166490 0.00000000 0.10699000
0.90226779 0.00000000 0.10475643
0.94103469 0.00000000 0.10133058
0.97382013 0.00000000 0.09748931
0.99628292 0.00000000 0.09667030
1.00000000 0.02077453 0.10340426
1.00000000 0.06052892 0.11072301
1.00000000 0.09733924 0.11651342
1.00000000 0.12506413 0.12024956
1.00000000 0.14568453 0.12190045
1.00000000 0.16127587 0.12172566
1.00000000 0.17315518 0.12002951
1.00000000 0.18208532 0.11695755
1.00000000 0.18835296 0.11234982
0.00000000 0.00000000 0.00000000
0.00000000 0.00000000 0.00000000
0.00000000 0.00000000 0.00000000
0.00000000 0.00000000 0.00000000
0.00000000 0.00000000 0.00000000
0.10638884 0.01069402 0.01891788
0.15066238 0.01496324 0.02748743
0.22109561 0.01026271 0.03297774
0.29298899 0.00435566 0.04044994
0.35944222 0.00000000 0.04882540
0.42119923 0.00000000 0.05767418
0.47883082 0.00000000 0.06710635
0.53325130 0.00000000 0.07672235
0.58544442 0.00000000 0.08566291
0.63571755 0.00000000 0.09320992
0.68399551 0.00000000 0.09940434
0.73052987 0.00000000 0.10403240
0.77579393 0.00000000 0.10663074
0.81959046 0.00000000 0.10748124
0.86166490 0.00000000 0.10699000
0.90226779 0.00000000 0.10475643
0.94103469 0.00000000 0.10133058
0.97382013 0.00000000 0.09748931
0.99628292 0.00000000 0.09667030
1.00000000 0.02077453 0.10340426
1.00000000 0.06052892 0.11072301
1.00000000 0.09733924 0.11651342
1.00000000 0.12506413 0.12024956
1.00000000 0.14568453 0.12190045
1.00000000 0.16127587 0.12172566
1.00000000 0.17315518 0.12002951
1.00000000 0.18208532 0.11695755
1.00000000 0.18835296 0.11234982
0.00000000 0.00000000 0.00000000
0.00000000 0.00000000 0.00000000
0.00000000 0.00000000 0.00000000
0.00000000 0.00000000 0.00000000
0.00000000 0.00000000 0.00000000
0.10638884 0.01069402 0.01891788
0.15066238 0.01496324 0.02748743
0.22109561 0.01026271 0.03297774
0.29298899 0.00435566 0.04044994
0.35944222 0.00000000 0.04882540
0.42119923 0.00000000 0.05767418
0.47883082 0.00000000 0.06710635
0.53325130 0.00000000 0.07672235
0.58544442 0.00000000 0.08566291
0.63571755 0.00000000 0.09320992
0.68399551 0.00000000 0.09940434
0.73052987 0.00000000 0.10403240
0.77579393 0.00000000 0.10663074
0.81959046 0.00000000 0.10748124
0.86166490 0.00000000 0.10699000
0.90226779 0.00000000 0.10475643
0.94103469 0.00000000 0.10133058
0.97382013 0.00000000 0.09748931
0.99628292 0.00000000 0.09667030
1.00000000 0.02077453 0.10340426
1.00000000 0.06052892 0.11072301
1.00000000 0.09733924 0.11651342
1.00000000 0.12506413 0.12024956
1.00000000 0.14568453 0.12190045
1.00000000 0.16127587 0.12172566
1.00000000 0.17315518 0.12002951
1.00000000 0.18208532 0.11695755
1.00000000 0.18835296 0.11234982
0.00000000 0.00000000 0.00000000
0.00000000 0.00000000 0.00000000
0.00000000 0.00000000 0.00000000
0.00000000 0.00326797 0.00000000
0.00000000 0.00000000 0.00000000
0.10638884 0.01069402 0.01891788
0.15066238 0.01496324 0.02748743
0.22109561 0.01026271 0.03297774
0.29298899 0.00435566 0.04044994
0.35944222 0.00000000 0.04882540
0.42119923 0.00000000 0.05767418
0.47883082 0.00000000 0.06710635
0.53325130 0.00000000 0.07672235
0.58544442 0.00000000 0.08566291
0.63571755 0.00000000 0.09320992
0.68399551 0.00000000 0.09940434
0.73052987 0.00000000 0.10403240
0.77579393 0.00000000 0.10663074
0.81959046 0.00000000 0.10748124
0.86166490 0.00000000 0.10699000
0.90226779 0.00000000 0.10475643
0.94103469 0.00000000 0.10133058
0.97382013 0.00000000 0.09748931
0.99628292 0.00000000 0.09667030
1.00000000 0.02077453 0.10340426
1.00000000 0.06052892 0.11072301
1.00000000 0.09733924 0.11651342
1.00000000 0.12506413 0.12024956
1.00000000 0.14568453 0.12190045
1.00000000 0.16127587 0.12172566
1.00000000 0.17315518 0.12002951
1.00000000 0.18208532 0.11695755
1.00000000 0.18835296 0.11234982
0.01514977 0.07711235 0.02511997
0.01514977 0.07711235 0.02511997
0.01514977 0.07711235 0.02511997
0.01514977 0.07711235 0.02511997
0.01514977 0.07711235 0.02511997
0.07340586 0.07932738 0.01937566
0.14511563 0.07608138 0.01694764
0.22095015 0.07014923 0.01238549
0.29920612 0.06009924 0.00964382
0.37085215 0.04778430 0.01193759
0.43706626 0.03409530 0.01688502
0.49811309 0.02094688 0.02427940
0.55416201 0.01020586 0.03410563
0.60697551 0.00104882 0.04458138
0.65761451 0.00000000 0.05446612
0.70567955 0.00000000 0.06408565
0.75172654 0.00000000 0.07269559
0.79632448 0.00000000 0.07940680
0.83940542 0.00000000 0.08413562
0.88094133 0.00000000 0.08682797
0.92010150 0.00000000 0.08874962
0.95637706 0.00000000 0.09087597
0.98512348 0.00000000 0.09504665
1.00000000 0.03060052 0.10670751
1.00000000 0.07396743 0.11949679
1.00000000 0.11309952 0.13009845
1.00000000 0.14258955 0.13812085
1.00000000 0.16503260 0.14349943
1.00000000 0.18221956 0.14651164
1.00000000 0.19545043 0.14756609
1.00000000 0.20565937 0.14704888
1.00000000 0.21341014 0.14516876
1.00000000 0.21894541 0.14190889
0.00923893 0.12940939 0.02923240
0.00923893 0.12940939 0.02923240
0.00923893 0.12940939 0.02923240
0.00923893 0.12940939 0.02923240
0.00923893 0.12940939 0.02923240
0.05477330 0.13761615 0.01451367
0.12750789 0.13783542 0.00911974
0.19972004 0.13786572 0.00704683
0.27675562 0.13542692 0.00000000
0.35291268 0.12724961 0.00000000
0.42433609 0.11495819 0.00000000
0.49104302 0.09961134 0.00037767
0.55370027 0.08159249 0.00677629
0.61327757 0.06164642 0.01368089
0.66993875 0.04172393 0.02061167
0.72255085 0.02497213 0.02894065
0.77162843 0.01176798 0.03787157
0.81830945 0.00070690 0.04574354
0.86242601 0.00000000 0.05274967
0.90347457 0.00000000 0.05971914
0.93985350 0.00000000 0.06926272
0.97140364 0.01019076 0.08206381
0.99250021 0.04378020 0.10089633
1.00000000 0.08955354 0.12100695
1.00000000 0.12923369 0.13789185
1.00000000 0.15993292 0.15100743
1.00000000 0.18410713 0.16081854
1.00000000 0.20297187 0.16758048
1.00000000 0.21767245 0.17178688
1.00000000 0.22913520 0.17394201
1.00000000 0.23806237 0.17447232
1.00000000 0.24488755 0.17362131
1.00000000 0.24984053 0.17147480
0.00832365 0.17442438 0.03759377
0.00832365 0.17442438 0.03759377
0.00832365 0.17442438 0.03759377
0.00832365 0.17442438 0.03759377
0.00832365 0.17442438 0.03759377
0.04031394 0.18676525 0.01716370
0.10789548 0.19175826 0.00668636
0.18194103 0.19556025 0.00535407
0.25498846 0.19881287 0.00530208
0.32882820 0.19799700 0.00140916
0.40235420 0.19224702 0.00000000
0.47335529 0.18242644 0.00000000
0.54112065 0.16935877 0.00143761
0.60578099 0.15336959 0.00593770
0.66759428 0.13446929 0.01079158
0.72637090 0.11301077 0.01580217
0.78206569 0.08931518 0.02088101
0.83453020 0.06467805 0.02587442
0.88309379 0.04441460 0.03170142
0.92539111 0.03551988 0.04195703
0.95965321 0.04398592 0.05980671
0.98183686 0.08168387 0.09225680
0.99701882 0.12349895 0.12238468
1.00000000 0.15965717 0.14711182
1.00000000 0.18955620 0.16661031
1.00000000 0.21381969 0.18151552
1.00000000 0.23329630 0.19253304
1.00000000 0.24884491 0.20036346
1.00000000 0.26117514 0.20559013
1.00000000 0.27091789 0.20874232
1.00000000 0.27858361 0.21025456
1.00000000 0.28457440 0.21047324
1.00000000 0.28881435 0.20923984
0.00695203 0.22390316 0.04820107
0.00695203 0.22390316 0.04820107
0.00695203 0.22390316 0.04820107
0.00695203 0.22390316 0.04820107
0.00695203 0.22390316 0.04820107
0.02906657 0.23704287 0.02247535
0.08902780 0.24451119 0.00732955
0.16497840 0.25089115 0.00209621
0.23959514 0.25648549 0.00253730
0.31255529 0.25896926 0.00269947
0.38520774 0.25760861 0.00174254
0.45722797 0.25228602 0.00158787
0.52752710 0.24338619 0.00348564
0.59551464 0.23135919 0.00709070
0.66100820 0.21653443 0.01149704
0.72395271 0.19911834 0.01595196
0.78416772 0.17938657 0.02010057
0.84120424 0.15803512 0.02418433
0.89403861 0.13706430 0.02969898
0.93974276 0.12338745 0.04139923
0.96901565 0.13788003 0.07537433
0.98869513 0.16668865 0.11653955
1.00000000 0.19790947 0.15158428
1.00000000 0.22615949 0.17942250
1.00000000 0.25006797 0.20102253
1.00000000 0.26977673 0.21742917
1.00000000 0.28580478 0.22964858
1.00000000 0.29873408 0.23851975
1.00000000 0.30911758 0.24474295
1.00000000 0.31741902 0.24887266
1.00000000 0.32409433 0.25142385
1.00000000 0.32927549 0.25255153
1.00000000 0.33287953 0.25215243
0.00529668 0.27159849 0.05903745
0.00529668 0.27159849 0.05903745
0.00529668 0.27159849 0.05903745
0.00529668 0.27159849 0.05903745
0.00529668 0.27159849 0.05903745
0.02074515 0.28428273 0.03084599
0.06928406 0.29322969 0.01103374
0.14491176 0.30144491 0.00259936
0.22024094 0.30909616 0.00070366
0.29385770 0.31393463 0.00019668
0.36685869 0.31531911 0.00000000
0.43984783 0.31303403 0.00000000
0.51240199 0.30703335 0.00000000
0.58368122 0.29754853 0.00037050
0.65307973 0.28489395 0.00329062
0.72017576 0.26939768 0.00697205
0.78468425 0.25138161 0.01085128
0.84605762 0.23149335 0.01518058
0.90270965 0.21187733 0.02220527
0.95111657 0.19834241 0.03796795
0.98198860 0.20610936 0.07960698
0.99917848 0.23046644 0.13189836
1.00000000 0.25922253 0.17586726
1.00000000 0.28375780 0.20825987
1.00000000 0.30437506 0.23274468
1.00000000 0.32138249 0.25129912
1.00000000 0.33520320 0.26521242
1.00000000 0.34639710 0.27550041
1.00000000 0.35543194 0.28296076
1.00000000 0.36273015 0.28823992
1.00000000 0.36855620 0.29175007
1.00000000 0.37305562 0.29372713
1.00000000 0.37614517 0.29411305
0.00366237 0.31719184 0.06932434
0.00366237 0.31719184 0.06932434
0.00366237 0.31719184 0.06932434
0.00366237 0.31719184 0.06932434
0.00366237 0.31719184 0.06932434
0.01407882 0.32913887 0.03998538
0.05097365 0.33887135 0.01600284
0.12315763 0.34828387 0.00503645
0.19841739 0.35750861 0.00135710
0.27187502 0.36436023 0.00000000
0.34490293 0.36820167 0.00000000
0.41835501 0.36859195 0.00000000
0.49244483 0.36528971 0.00000000
0.56652549 0.35821014 0.00000000
0.63970800 0.34753535 0.00000000
0.71118365 0.33356475 0.00000000
0.78039591 0.31663547 0.00000000
0.84645770 0.29747720 0.00000000
0.92071021 0.26540954 0.00000000
0.97929916 0.24204248 0.00000000
0.99186828 0.26793178 0.07778218
1.00000000 0.28776230 0.14146639
1.00000000 0.31184658 0.19210612
1.00000000 0.33418704 0.23074827
1.00000000 0.35326499 0.25994828
1.00000000 0.36897162 0.28194899
1.00000000 0.38145203 0.29815332
1.00000000 0.39141996 0.31020991
1.00000000 0.39947177 0.31915253
1.00000000 0.40594836 0.32565602
1.00000000 0.41108690 0.33018936
1.00000000 0.41503363 0.33305339
1.00000000 0.41770555 0.33423230
0.00235470 0.36106045 0.07858638
0.00235470 0.36106045 0.07858638
0.00235470 0.36106045 0.07858638
0.00235470 0.36106045 0.07858638
0.00235470 0.36106045 0.07858638
0.00884214 0.37216156 0.04893258
0.03470975 0.38235558 0.02141944
0.10010538 0.39256567 0.00798482
0.17506850 0.40293660 0.00237871
0.24791340 0.41136914 0.00000000
0.32034564 0.41727758 0.00000000
0.39352088 0.42017440 0.00000000
0.46788638 0.41956518 0.00000000
0.54345016 0.41518565 0.00000000
0.61945707 0.40688232 0.00000000
0.69490476 0.39479018 0.00000000
0.76873018 0.37924627 0.00000000
0.83983495 0.36086903 0.00000000
0.90622393 0.34130841 0.00000000
0.98494355 0.30590996 0.00000000
0.99928980 0.32537814 0.06474210
1.00000000 0.34163695 0.14458125
1.00000000 0.36250030 0.20471649
1.00000000 0.38237114 0.24982155
1.00000000 0.39944398 0.28370437
1.00000000 0.41351361 0.30909101
1.00000000 0.42486884 0.32809556
1.00000000 0.43398609 0.34230978
1.00000000 0.44126783 0.35294948
1.00000000 0.44706152 0.36082627
1.00000000 0.45163187 0.36649654
1.00000000 0.45511900 0.37032432
1.00000000 0.45744139 0.37233960
0.00139046 0.40349956 0.08613833
0.00139046 0.40349956 0.08613833
0.00139046 0.40349956 0.08613833
0.00139046 0.40349956 0.08613833
0.00139046 0.40349956 0.08613833
0.00485491 0.41380687 0.05696273
0.02176444 0.42410864 0.02736378
0.07516174 0.43502401 0.00997029
0.14992257 0.44619972 0.00214397
0.22222413 0.45586374 0.00000000
0.29385392 0.46339130 0.00000000
0.36626117 0.46839823 0.00000000
0.44020974 0.47035879 0.00000000
0.51589098 0.46871206 0.00000000
0.59320794 0.46318855 0.00000000
0.67133604 0.45357520 0.00000000
0.74911292 0.43998817 0.00000000
0.82510355 0.42290594 0.00000000
0.89716088 0.40359422 0.00000000
0.96074806 0.38577274 0.00000000
1.00000000 0.38058447 0.03731703
1.00000000 0.39265420 0.13730014
1.00000000 0.41044207 0.21041207
1.00000000 0.42802804 0.26372066
1.00000000 0.44336446 0.30329678
1.00000000 0.45605752 0.33293785
1.00000000 0.46634510 0.35519480
1.00000000 0.47459532 0.37191378
1.00000000 0.48120344 0.38449038
1.00000000 0.48643637 0.39390071
1.00000000 0.49050547 0.40083993
1.00000000 0.49357153 0.40570628
1.00000000 0.49556006 0.40858953
0.00000000 0.44490268 0.09022177
0.00000000 0.44490268 0.09022177
0.00000000 0.44490268 0.09022177
0.00000000 0.44490268 0.09022177
0.00000000 0.44490268 0.09022177
0.00009310 0.45449418 0.06201961
0.01058300 0.46462298 0.03190961
0.05062853 0.47596635 0.01049711
0.12246477 0.48781940 0.00001283
0.19450073 0.49847422 0.00000000
0.26547989 0.50728230 0.00000000
0.33698800 0.51395072 0.00000000
0.41008249 0.51806689 0.00000000
0.48530112 0.51906500 0.00000000
0.56264278 0.51632408 0.00000000
0.64193515 0.50957998 0.00000000
0.72228045 0.49859067 0.00000000
0.80223719 0.48352756 0.00000000
0.87962010 0.46525084 0.00000000
0.95023195 0.44641227 0.00000000
1.00000000 0.43508505 0.00000000
1.00000000 0.44214436 0.11509421
1.00000000 0.45646202 0.20695378
1.00000000 0.47169295 0.27114636
1.00000000 0.48539112 0.31804414
1.00000000 0.49685847 0.35292399
1.00000000 0.50615795 0.37909241
1.00000000 0.51362351 0.39885897
1.00000000 0.51958831 0.41377344
1.00000000 0.52429517 0.42498774
1.00000000 0.52792303 0.43328898
1.00000000 0.53057452 0.43927668
1.00000000 0.53221569 0.44305873
0.00000000 0.48546871 0.08994979
0.00000000 0.48546871 0.08994979
0.00000000 0.48546871 0.08994979
0.00000000 0.48546871 0.08994979
0.00000000 0.48546871 0.08994979
0.00000000 0.49441674 0.06281981
0.00000000 0.50418682 0.03317480
0.02717641 0.51579048 0.00852927
0.09128118 0.52816529 0.00000000
0.16412553 0.53947711 0.00000000
0.23489677 0.54934466 0.00000000
0.30561501 0.55743155 0.00000000
0.37777077 0.56327997 0.00000000
0.45211513 0.56648912 0.00000000
0.52901772 0.56648034 0.00000000
0.60832103 0.56257502 0.00000000
0.68976641 0.55452924 0.00000000
0.77230340 0.54212991 0.00000000
0.85397400 0.52574212 0.00000000
0.93118359 0.50701669 0.00000000
0.99604046 0.49107410 0.00000000
1.00000000 0.49149798 0.07005898
1.00000000 0.50163048 0.19180422
1.00000000 0.51419409 0.27081867
1.00000000 0.52612449 0.32732154
1.00000000 0.53635705 0.36878076
1.00000000 0.54471064 0.39972993
1.00000000 0.55139363 0.42303203
1.00000000 0.55667528 0.44068072
1.00000000 0.56083462 0.45398307
1.00000000 0.56400843 0.46391714
1.00000000 0.56629370 0.47110774
1.00000000 0.56759665 0.47587237
0.00000000 0.52529547 0.08450371
0.00000000 0.52529547 0.08450371
0.00000000 0.52529547 0.08450371
0.00000000 0.52529547 0.08450371
0.00000000 0.52529547 0.08450371
0.00000000 0.53365700 0.05856840
0.00000000 0.54296674 0.03012656
0.00395296 0.55467494 0.00323008
0.05610741 0.56730554 0.00000000
0.13013874 0.57915332 0.00000000
0.20120208 0.58996282 0.00000000
0.27178755 0.59911516 0.00000000
0.34313598 0.60646178 0.00000000
0.41652553 0.61151239 0.00000000
0.49257224 0.61378112 0.00000000
0.57150714 0.61270908 0.00000000
0.65302378 0.60756328 0.00000000
0.73673061 0.59814671 0.00000000
0.82126419 0.58435529 0.00000000
0.90366332 0.56701074 0.00000000
0.97749145 0.54938343 0.00000000
1.00000000 0.54182052 0.00221855
1.00000000 0.54684473 0.16063239
1.00000000 0.55624857 0.26085082
1.00000000 0.56613332 0.33000734
1.00000000 0.57496448 0.38004534
1.00000000 0.58231772 0.41690111
1.00000000 0.58818165 0.44445002
1.00000000 0.59278162 0.46522255
1.00000000 0.59632959 0.48096194
1.00000000 0.59903513 0.49278016
1.00000000 0.60092659 0.50143631
1.00000000 0.60191356 0.50724581
0.00000000 0.56443231 0.07292547
0.00000000 0.56443231 0.07292547
0.00000000 0.56443231 0.07292547
0.00000000 0.56443231 0.07292547
0.00000000 0.56443231 0.07292547
0.00000000 0.57227314 0.04851245
0.00000000 0.58111735 0.02167645
0.00000000 0.59263112 0.00000000
0.02148330 0.60539126 0.00000000
0.08939708 0.61775170 0.00000000
0.16354936 0.62914735 0.00000000
0.23460053 0.63931656 0.00000000
0.30571654 0.64789454 0.00000000
0.37835035 0.65449523 0.00000000
0.45346993 0.65871853 0.00000000
0.53160097 0.65999913 0.00000000
0.61286371 0.65779928 0.00000000
0.69678826 0.65133791 0.00000000
0.78276479 0.64050366 0.00000000
0.86882424 0.62543391 0.00000000
0.95020031 0.60781655 0.00000000
1.00000000 0.59362761 0.00000000
1.00000000 0.59293211 0.10293454
1.00000000 0.59847505 0.23827246
1.00000000 0.60592841 0.32467110
1.00000000 0.61312540 0.38580422
1.00000000 0.61927928 0.43025124
1.00000000 0.62425688 0.46301593
1.00000000 0.62811706 0.48752434
1.00000000 0.63105379 0.50601191
1.00000000 0.63321438 0.51999230
1.00000000 0.63468420 0.53030969
1.00000000 0.63529165 0.53734034
0.00000000 0.60289858 0.05501580
0.00000000 0.60289858 0.05501580
0.00000000 0.60289858 0.05501580
0.00000000 0.60289858 0.05501580
0.00000000 0.60289858 0.05501580
0.00000000 0.61027484 0.03226672
0.00000000 0.61866812 0.00728789
0.00000000 0.62989747 0.00000000
0.00000000 0.64260066 0.00000000
0.04187744 0.65531972 0.00000000
0.11923713 0.66712683 0.00000000
0.19274882 0.67818604 0.00000000
0.26464219 0.68774532 0.00000000
0.33703802 0.69572782 0.00000000
0.41149419 0.70156830 0.00000000
0.48875949 0.70492272 0.00000000
0.56930387 0.70515785 0.00000000
0.65314270 0.70176140 0.00000000
0.73960073 0.69391649 0.00000000
0.82769630 0.68165925 0.00000000
0.91438583 0.66557032 0.00000000
0.99181240 0.64882466 0.00000000
1.00000000 0.64068631 0.00343988
1.00000000 0.64149807 0.19755514
1.00000000 0.64593509 0.30899733
1.00000000 0.65118238 0.38491660
1.00000000 0.65595938 0.43912279
1.00000000 0.65987635 0.47858033
1.00000000 0.66293884 0.50767249
1.00000000 0.66520247 0.52942230
1.00000000 0.66679544 0.54576661
1.00000000 0.66774224 0.55790065
1.00000000 0.66789353 0.56620678
0.00000000 0.64068144 0.03078811
0.00000000 0.64068144 0.03078811
0.00000000 0.64068144 0.03078811
0.00000000 0.64068144 0.03078811
0.00000000 0.64068144 0.03078811
0.00000000 0.64763871 0.00979425
0.00000000 0.65560018 0.00000000
0.00000000 0.66647627 0.00000000
0.00000000 0.67896583 0.00000000
0.00000000 0.69172130 0.00000000
0.06281009 0.70403388 0.00000000
0.14388368 0.71565537 0.00000000
0.21837998 0.72619849 0.00000000
0.29167737 0.73528147 0.00000000
0.36600602 0.74260558 0.00000000
0.44272157 0.74768640 0.00000000
0.52250768 0.75010736 0.00000000
0.60575312 0.74924341 0.00000000
0.69236928 0.74458080 0.00000000
0.78139532 0.73529847 0.00000000
0.87121143 0.72168016 0.00000000
0.95685639 0.70509998 0.00000000
1.00000000 0.69036039 0.00000000
1.00000000 0.68573280 0.12417560
1.00000000 0.68654959 0.27873380
1.00000000 0.68938805 0.37529367
1.00000000 0.69253882 0.44246868
1.00000000 0.69526179 0.49052620
1.00000000 0.69735932 0.52546157
1.00000000 0.69888123 0.55116248
1.00000000 0.69983172 0.57025611
1.00000000 0.70022172 0.58431042
1.00000000 0.69981110 0.59393364
0.00000000 0.67774624 0.00051234
0.00000000 0.67774624 0.00051234
0.00000000 0.67774624 0.00051234
0.00000000 0.67774624 0.00051234
0.00000000 0.67774624 0.00051234
0.00000000 0.68432194 0.00000000
0.00000000 0.69187036 0.00000000
0.00000000 0.70226383 0.00000000
0.00000000 0.71446999 0.00000000
0.00000000 0.72711755 0.00000000
0.00354983 0.73983355 0.00000000
0.08121323 0.75189699 0.00000000
0.16398299 0.76331762 0.00000000
0.24043019 0.77335183 0.00000000
0.31591355 0.78193054 0.00000000
0.39276209 0.78855439 0.00000000
0.47217240 0.79282377 0.00000000
0.55481014 0.79424551 0.00000000
0.64100439 0.79222051 0.00000000
0.73054207 0.78622531 0.00000000
0.82204297 0.77547541 0.00000000
0.91284507 0.76065715 0.00000000
0.99355790 0.74335400 0.00000000
1.00000000 0.73187344 0.00000000
1.00000000 0.72813948 0.22605093
1.00000000 0.72804429 0.35358242
1.00000000 0.72918821 0.43852203
1.00000000 0.73049673 0.49793596
1.00000000 0.73151697 0.54033002
1.00000000 0.73213288 0.57101740
1.00000000 0.73236604 0.59339208
1.00000000 0.73211739 0.60962360
1.00000000 0.73110567 0.62054887
0.00000000 0.71403912 0.00000000
0.00000000 0.71403912 0.00000000
0.00000000 0.71403912 0.00000000
0.00000000 0.71403912 0.00000000
0.00000000 0.71403912 0.00000000
0.00000000 0.72025967 0.00000000
0.00000000 0.72740926 0.00000000
0.00000000 0.73730920 0.00000000
0.00000000 0.74915965 0.00000000
0.00000000 0.76150792 0.00000000
0.00000000 0.77443041 0.00000000
0.00980548 0.78684784 0.00000000
0.09368041 0.79900287 0.00000000
0.17982536 0.81000427 0.00000000
0.25907015 0.81964294 0.00000000
0.33755939 0.82765916 0.00000000
0.41745305 0.83354000 0.00000000
0.49995245 0.83694063 0.00000000
0.58574387 0.83729787 0.00000000
0.67510073 0.83404021 0.00000000
0.76763492 0.82665138 0.00000000
0.86133416 0.81444662 0.00000000
0.95054731 0.79770151 0.00000000
1.00000000 0.78028425 0.00000000
1.00000000 0.77119622 0.12871221
1.00000000 0.76739952 0.31380928
1.00000000 0.76608129 0.42422385
1.00000000 0.76565089 0.49915917
1.00000000 0.76540606 0.55143239
1.00000000 0.76502685 0.58846476
1.00000000 0.76439785 0.61496440
1.00000000 0.76343671 0.63374509
1.00000000 0.76174012 0.64606518
0.00000000 0.74950897 0.00000000
0.00000000 0.74950897 0.00000000
0.00000000 0.74950897 0.00000000
0.00000000 0.74950897 0.00000000
0.00000000 0.74950897 0.00000000
0.00000000 0.75538403 0.00000000
0.00000000 0.76212792 0.00000000
0.00000000 0.77147306 0.00000000
0.00000000 0.78300396 0.00000000
0.00000000 0.79506798 0.00000000
0.00000000 0.80765301 0.00000000
0.00000000 0.82034031 0.00000000
0.00467969 0.83341437 0.00000000
0.09828593 0.84537900 0.00000000
0.19100058 0.85588225 0.00000000
0.27447556 0.86505570 0.00000000
0.35680036 0.87240993 0.00000000
0.44020086 0.87753240 0.00000000
0.52618301 0.87999563 0.00000000
0.61541315 0.87921451 0.00000000
0.70810221 0.87464970 0.00000000
0.80361146 0.86582549 0.00000000
0.89780112 0.85117330 0.00000000
0.98257344 0.83233316 0.00000000
1.00000000 0.81654736 0.00000000
1.00000000 0.80791696 0.24342648
1.00000000 0.80336188 0.39396353
